!!!!SEGMENT: pl-wtm--r-1664--010_stefani-jozef--okropnosc-czyli-nowa-lafarge-no-7-moderato.krn
!!!cenid: 18xx:2065
!!!COM: Stefani, Józef
!!!COM-rismID: pe30024097
!!!CDT: 1800/04/16-1876/03/19
!!!CNT: Polish
!!!OPR: Okropność czyli Nowa Lafarge
!!!OTL: No. 7 - Moderato
!!!OMV: 010
!!!PDT:
!!!AGN: Secular
!!!SMS-siglum: PL-Wtm
!!!SMS-shelfmark: R 1664
!!!SMS-shelfwork: 001-010 M
!!!SMS-variant:
!!!SMS-altvar:
!!!NIFC-rismSourceID: 1001114328
!!!NIFC-rismChildID: 1001114328
!!!NIFC-islandoraID: pl-wtm:27523
!!!URL-pdf-islandora: https://repozytorium.nifc.pl/islandora/object/pl-wtm%3A27523/datastream/PDF/view
!!!URL-scan: https://polish.musicsources.pl/pl/lokalizacje/galeria/rekopisy/6406 @EN{Scan on Polish Music Sources Website} @PL{Skany w portalu Dziedzictwo Muzyki Polskiej w otwartym dostępie}
!!!IIIF:
!!!ONB-nifc: UWAGA: skany 0041-0050 (razem z Molto Moderato)
!!!OMD: Moderato.
!!!AIN: 1 cello 1 clars 1 cor 2 empty 1 fagot 1 flt 1 oboe 1 timpa 1 tromp 1 tromt 1 viola 1 violn 1 vox
!!!key:
**kern	**kern	**dynam	**kern	**kern	**text	**dynam	**kern	**kern	**dynam	**kern	**dynam	**kern	**dynam	**kern	**dynam	**kern	**dynam	**kern	**dynam	**kern	**dynam	**kern	**dynam	**kern	**dynam
*part14	*part13	*part13	*part12	*part11	*part11	*part11	*part10	*part9	*part9	*part8	*part8	*part7	*part7	*part6	*part6	*part5	*part5	*part4	*part4	*part3	*part3	*part2	*part2	*part1	*part1
*staff14	*staff13	*	*staff12	*staff11	*staff11	*	*staff10	*staff9	*	*staff8	*	*staff7	*	*staff6	*	*staff5	*	*staff4	*	*staff3	*	*staff2	*	*staff1	*
*Itimpa	*Iempty	*	*Icello	*Ivox	*	*	*Iviola	*Iempty	*	*Ivioln	*	*Itromt	*	*Itromp	*	*Ifagot	*	*Icor	*	*Iclars	*	*Ioboe	*	*Iflt	*
*I"Timpani	*I"Baſsi	*	*I"[Violoncelli]	*I"Voce	*	*	*I"Viole	*	*	*I"Violini	*	*I"Trombone	*	*I"Tromba in C	*	*I"Fagoto	*	*I"Corni in C	*	*I"Clarinetti in C	*	*I"Oboe	*	*I"Flauto	*
*I'Timp.	*I'B.	*	*I'Vc.	*I'V	*	*	*I'Va	*	*	*	*	*I'Trb	*	*I'Tr-ba	*	*I'Fag.	*	*I'C. in C	*	*I'Cl. in C.	*	*I'Ob.	*	*I'Fl.	*
*clefF1	*clefF4	*	*clefF4	*clefG2	*	*	*clefC3	*clefG2	*	*clefG2	*	*clefF4	*	*clefG2	*	*clefF4	*	*clefG2	*	*clefG2	*	*clefG2	*	*clefG2	*
*	*Trd0c0	*	*	*	*	*	*	*	*	*	*	*	*	*	*	*	*	*	*	*	*	*	*	*	*
*k[]	*k[]	*	*k[]	*k[]	*	*	*k[]	*k[]	*	*k[]	*	*k[]	*	*k[]	*	*k[]	*	*k[]	*	*k[]	*	*k[]	*	*k[]	*
*b:	*b:	*	*b:	*b:	*	*	*b:	*b:	*	*b:	*	*b:	*	*b:	*	*b:	*	*b:	*	*b:	*	*b:	*	*b:	*
*M6/8	*M6/8	*	*M6/8	*M6/8	*	*	*M6/8	*M6/8	*	*M6/8	*	*M6/8	*	*M6/8	*	*M6/8	*	*M6/8	*	*M6/8	*	*M6/8	*	*M6/8	*
*stria1	*	*	*	*	*	*	*	*	*	*	*	*	*	*	*	*	*	*	*	*	*	*	*	*	*
*>[A,B]	*>[A,B]	*	*>[A,B]	*>[A,B]	*	*	*>[A,B]	*>[A,B]	*	*>[A,B]	*	*>[A,B]	*	*>[A,B]	*	*>[A,B]	*	*>[A,B]	*	*>[A,B]	*	*>[A,B]	*	*>[A,B]	*
=1	=1	=1	=1	=1	=1	=1	=1	=1	=1	=1	=1	=1	=1	=1	=1	=1	=1	=1	=1	=1	=1	=1	=1	=1	=1
*>A	*>A	*	*>A	*>A	*	*	*>A	*>A	*	*>A	*	*>A	*	*>A	*	*>A	*	*>A	*	*>A	*	*>A	*	*>A	*
*	*	*	*	*	*	*	*2\right	*2\right	*	*	*	*	*	*2\right	*	*2\right	*	*	*	*	*	*	*	*	*
!LO:TX:t=P:problem=all\right&colon; global	!LO:TX:t=P:problem=all\right&colon; global	!	!	!LO:TX:t=P:problem=all\right&colon; global	!	!	!	!	!	!	!	!	!	!	!	!	!	!	!	!	!	!	!	!	!
!	!	!	!	!	!	!	!LO:TX:t=P:problem=all\right&colon; global	!LO:TX:t=P:problem=all\right&colon; global	!	!LO:TX:t=P:problem=all\right&colon; global	!	!LO:TX:t=P:problem=all\right&colon; global	!	!	!	!	!	!	!	!	!	!	!	!	!
!	!	!	!	!	!	!	!	!	!	!	!	!	!	!	!	!	!	!	!	!LO:TX:t=P:problem=all\right&colon; global	!	!LO:TX:t=P:problem=all\right&colon; global	!	!LO:TX:t=P:problem=all\right&colon; global	!
!	!	!	!	!	!	!	!	!	!	!	!	!	!	!LO:TX:t=P:problem=all\right&colon; global	!	!LO:TX:t=P:problem=all\right&colon; global	!	!LO:TX:t=P:problem=all\right&colon; global	!	!	!	!	!	!	!
!	!	!	!	!	!	!	!	!	!	!	!	!	!	!	!	!	!	!	!	!	!	!	!	!LO:TX:t=P:problem=w źródle klamry przy Violini (violino primo, violino secundo) oraz Flauto i Oboe; reszta głosów pogrupowana w kodzie	!
!LO:TX:a:t=P:problem=w źródle przed kluczem dźwięk 8GG	!	!	!	!	!	!	!	!	!	!	!	!	!	!	!	!	!	!	!	!	!	!	!	!	!
!	!	!	!LO:TX:a:t=P:problem=w źródle brak w partyturze partii Violoncelli [możliwe, że instrument gra tą samą partię co Baſsi]	!	!	!	!	!	!	!	!	!	!	!	!	!	!	!	!	!	!	!	!	!	!
2.r	2.r	.	2.ryy	2.r	.	.	8r	8r	.	2.r	.	2.r	.	8r	.	8r	.	2.r	.	2.r	.	2.r	.	2.r	.
!	!	!	!	!	!	!	!	!	!LO:DY:b:rj	!	!	!	!	!	!	!	!LO:DY:b:rj	!	!	!	!	!	!	!	!
.	.	.	.	.	.	.	8F#X/L	8f#X/L	f	.	.	.	.	8f#X/L	.	8F#X\L	f	.	.	.	.	.	.	.	.
.	.	.	.	.	.	.	8G/J	8g/J	.	.	.	.	.	8g/J	.	8G\J	.	.	.	.	.	.	.	.	.
.	.	.	.	.	.	.	8A-X/L	8a-X/L	.	.	.	.	.	8a-X/L	.	8A-X\L	.	.	.	.	.	.	.	.	.
.	.	.	.	.	.	.	8F#/	8f#/	.	.	.	.	.	8f#/	.	8F#\	.	.	.	.	.	.	.	.	.
.	.	.	.	.	.	.	8G/J	8g/J	.	.	.	.	.	8g/J	.	8G\J	.	.	.	.	.	.	.	.	.
=2	=2	=2	=2	=2	=2	=2	=2	=2	=2	=2	=2	=2	=2	=2	=2	=2	=2	=2	=2	=2	=2	=2	=2	=2	=2
*	*2\right	*	*	*	*	*	*	*	*	*2\right	*	*2\right	*	*	*	*	*	*2\right	*	*2\right	*	*2\right	*	*2\right	*
2.r	8r	.	2.ryy	2.r	.	.	8An/	8an/	.	8r	.	8r	.	8an/	.	8An\	.	8r	.	8r	.	8r	.	8r	.
!	!	!LO:DY:b:rj	!	!	!	!	!	!	!	!	!LO:DY:b:rj	!	!	!	!	!	!	!	!	!	!	!	!	!	!LO:DY:b:rj
.	8Fn\L	f	.	.	.	.	8Fn/L	8ee-XL 8fn/	.	8aaL 8cc\	f	8F\L	.	8a/L	.	8F\L	.	8ee-XL 8cc\	.	8ee-XL 8cc\	.	8aa\L	.	8aa\L	f
.	8F\J	.	.	.	.	.	8F/J	8ee-J 8f/	.	8aaJ 8cc\	.	8F\J	.	8a/J	.	8F\J	.	8ee-J 8cc\	.	8ee-J 8cc\	.	8aa\J	.	8aa\J	.
*	*tremolo	*	*	*	*	*	*tremolo	*tremolo	*	*tremolo	*	*tremolo	*	*tremolo	*	*tremolo	*	*tremolo	*	*tremolo	*	*tremolo	*	*tremolo	*
.	8F\L	.	.	.	.	.	8F/L	8ee-L 8f/	.	8aaL 8cc\	.	8F\L	.	8a/L	.	8F\L	.	8ee-L 8cc\	.	8ee-L 8cc\	.	8aa\L	.	8aa\L	.
.	8F\	.	.	.	.	.	8F/	8ee- 8f/	.	8aa 8cc\	.	8F\	.	8a/	.	8F\	.	8ee- 8cc\	.	8ee- 8cc\	.	8aa\	.	8aa\	.
.	8F\J	.	.	.	.	.	8F/J	8ee-J 8f/	.	8aaJ 8cc\	.	8F\J	.	8a/J	.	8F\J	.	8ee-J 8cc\	.	8ee-J 8cc\	.	8aa\J	.	8aa\J	.
*	*Xtremolo	*	*	*	*	*	*Xtremolo	*Xtremolo	*	*Xtremolo	*	*Xtremolo	*	*Xtremolo	*	*Xtremolo	*	*Xtremolo	*	*Xtremolo	*	*Xtremolo	*	*Xtremolo	*
=3	=3	=3	=3	=3	=3	=3	=3	=3	=3	=3	=3	=3	=3	=3	=3	=3	=3	=3	=3	=3	=3	=3	=3	=3	=3
*	*	*	*	*	*	*	*	*	*	*	*	*	*	*	*	*	*	*^	*	*	*	*	*	*	*
2.r	8BB-X/	.	2.ryy	2.r	.	.	8B-X/	8dd 8f/	.	4bb-X 4dd\	.	8BB-X/	.	8b-X/	.	8B-X\	.	4dd/	4dd\	.	4dd 4b-X\	.	4bb-X\	.	4bb-X\	.
*	*	*	*	*	*	*	*tremolo	*tremolo	*	*	*	*	*	*	*	*	*	*	*	*	*	*	*	*	*	*
.	8r	.	.	.	.	.	16F#X/LL	16f#X/LL	.	.	.	8r	.	8f#X/L	.	8F#X\L	.	.	.	.	.	.	.	.	.	.
.	.	.	.	.	.	.	16F#/	16f#/	.	.	.	.	.	.	.	.	.	.	.	.	.	.	.	.	.	.
.	8r	.	.	.	.	.	16G/	16g/	.	8r	.	8r	.	8g/J	.	8G\J	.	8r	8rcyy	.	8r	.	8r	.	8r	.
.	.	.	.	.	.	.	16G/JJ	16g/JJ	.	.	.	.	.	.	.	.	.	.	.	.	.	.	.	.	.	.
.	4r	.	.	.	.	.	16A-X/LL	16a-X/LL	.	4r	.	4r	.	8a-X/L	.	8A-X\L	.	4r	4rcyy	.	4r	.	4r	.	4r	.
.	.	.	.	.	.	.	16A-/	16a-/	.	.	.	.	.	.	.	.	.	.	.	.	.	.	.	.	.	.
.	.	.	.	.	.	.	16F#/	16f#/	.	.	.	.	.	8f#/	.	8F#\	.	.	.	.	.	.	.	.	.	.
.	.	.	.	.	.	.	16F#/	16f#/	.	.	.	.	.	.	.	.	.	.	.	.	.	.	.	.	.	.
.	8r	.	.	.	.	.	16G/	16g/	.	8r	.	8r	.	8g/J	.	8G\J	.	8r	8rcyy	.	8r	.	8r	.	8r	.
.	.	.	.	.	.	.	16G/JJ	16g/JJ	.	.	.	.	.	.	.	.	.	.	.	.	.	.	.	.	.	.
*	*	*	*	*	*	*	*Xtremolo	*Xtremolo	*	*	*	*	*	*	*	*	*	*	*	*	*	*	*	*	*	*
!!LO:PB:g=original
*	*	*	*	*	*	*	*	*	*	*	*	*	*	*	*	*	*	*v	*v	*	*	*	*	*	*	*
=4	=4	=4	=4	=4	=4	=4	=4	=4	=4	=4	=4	=4	=4	=4	=4	=4	=4	=4	=4	=4	=4	=4	=4	=4	=4
2.ryy	8r	.	2.ryy	2.r	.	.	8A/	8an/	.	8r	.	8r	.	8an/	.	8r	.	8r	.	8r	.	8r	.	8r	.
.	8G\L	.	.	.	.	.	8dL 8G/	8ffL 8g\	<	8bbnL 8dd\	<	8GG/L	.	8b/L	.	8G\L	.	8ddL 8g/	.	8ffL 8dd\	.	8gg\L	.	8bbn\L	.
!	!	!LO:HP:b	!	!	!	!	!	!	!	!	!	!	!	!	!	!	!	!	!	!	!	!	!	!	!
.	8G\J	<	.	.	.	.	8dJ 8G/	8ffJ 8g\	.	8bbJ 8dd\	.	8GG/J	.	8b/J	.	8G\J	.	8ddJ 8g/	.	8ffJ 8dd\	.	8gg\J	.	8bb\J	.
*	*tremolo	*	*	*	*	*	*tremolo	*tremolo	*	*tremolo	*	*tremolo	*	*tremolo	*	*tremolo	*	*tremolo	*	*tremolo	*	*tremolo	*	*tremolo	*
.	8G\L	.	.	.	.	.	8dL 8G/	8ffL 8g\	.	8bbL 8dd\	.	8GG/L	.	8b/L	.	8G\L	.	8ddL 8g/	.	8ffL 8dd\	.	8gg\L	.	8bb\L	.
.	8G\	.	.	.	.	.	8d 8G/	8ff 8g\	.	8bb 8dd\	.	8GG/	.	8b/	.	8G\	.	8dd 8g/	.	8ff 8dd\	.	8gg\	.	8bb\	.
.	8G\J	[	.	.	.	.	8dJ 8G/	8ffJ 8g\	[[	8bbJ 8dd\	[[	8GG/J	.	8b/J	.	8G\J	.	8ddJ 8g/	.	8ffJ 8dd\	.	8gg\J	.	8bb\J	.
*	*Xtremolo	*	*	*	*	*	*Xtremolo	*Xtremolo	*	*Xtremolo	*	*Xtremolo	*	*Xtremolo	*	*Xtremolo	*	*Xtremolo	*	*Xtremolo	*	*Xtremolo	*	*Xtremolo	*
=5	=5	=5	=5	=5	=5	=5	=5	=5	=5	=5	=5	=5	=5	=5	=5	=5	=5	=5	=5	=5	=5	=5	=5	=5	=5
2.ryy	8C/	.	2.ryy	2.r	.	.	8e 8c\	8ee 8g\	.	8ccc 8ee\	.	8C/	.	8cc\	.	8G\	.	8ee 8cc\	.	8ee 8cc\	.	8gg\	.	8ccc\	.
!	!	!LO:DY:b:rj	!	!	!	!	!	!	!LO:DY:b:rj	!	!LO:DY:b:rj	!	!	!	!	!	!LO:DY:b:rj	!	!LO:DY:b:rj	!	!LO:DY:b:rj	!	!	!	!LO:DY:b:rj
.	8c\L	ff	.	.	.	.	8aL 8d#X\	8ff#XL 8a\	ff	8ccc\L	ff	8C/L	.	8cc\L	.	8A\L	ff	8ccL 8c/	ff	8ff#XL 8dd#X\	ff	8aa\L	.	8ccc\L	ff
.	8c\J	.	.	.	.	.	8aJ 8d#\	8ff#J 8a\	.	8ccc\J	.	8C/J	.	8cc\J	.	8A\J	.	8ccJ 8c/	.	8ff#J 8dd#\	.	8aa\J	.	8ccc\J	.
*	*tremolo	*	*	*	*	*	*tremolo	*tremolo	*	*tremolo	*	*tremolo	*	*tremolo	*	*tremolo	*	*tremolo	*	*tremolo	*	*tremolo	*	*tremolo	*
.	8c\L	.	.	.	.	.	8aL 8d#\	8ff#L 8a\	.	8ccc\L	.	8C/L	.	8cc\L	.	8A\L	.	8ccL 8c/	.	8ff#L 8dd#\	.	8aa\L	.	8ccc\L	.
.	8c\	.	.	.	.	.	8a 8d#\	8ff# 8a\	.	8ccc\	.	8C/	.	8cc\	.	8A\	.	8cc 8c/	.	8ff# 8dd#\	.	8aa\	.	8ccc\	.
.	8c\J	.	.	.	.	.	8aJ 8d#\	8ff#J 8a\	.	8ccc\J	.	8C/J	.	8cc\J	.	8A\J	.	8ccJ 8c/	.	8ff#J 8dd#\	.	8aa\J	.	8ccc\J	.
*	*Xtremolo	*	*	*	*	*	*Xtremolo	*Xtremolo	*	*Xtremolo	*	*Xtremolo	*	*Xtremolo	*	*Xtremolo	*	*Xtremolo	*	*Xtremolo	*	*Xtremolo	*	*Xtremolo	*
=6	=6	=6	=6	=6	=6	=6	=6	=6	=6	=6	=6	=6	=6	=6	=6	=6	=6	=6	=6	=6	=6	=6	=6	=6	=6
*	*	*	*	*	*	*	*	*	*	*	*	*rep	*	*rep	*	*rep	*	*	*	*rep	*	*rep	*	*	*
2.ryy	8C/	.	2.ryy	2.r	.	.	(>32gLLL 32e\	8gg 8cc\	.	(>32ccc\LLL	.	8C/	.	8cc\	.	8G\	.	8cc 8c/	.	8ee 8cc\	.	8gg\	.	(>32ccc\LLL	.
.	.	.	.	.	.	.	32fJ 32d\	.	.	32ddd\J	.	.	.	.	.	.	.	.	.	.	.	.	.	32ddd\J	.
.	.	.	.	.	.	.	16eJJ 16c\	.	.	16eee\JJ	.	.	.	.	.	.	.	.	.	.	.	.	.	16eee\JJ)	.
!	!	!	!	!	!	!	!	!	!	!	!	!	!	!	!	!	!LO:DY:b:rj	!	!	!	!LO:DY:b:rj	!	!	!	!
.	8C/L	.	.	.	.	.	8aL 8d#X\)	8ff#XL 8a\	.	8ccc\L)	.	8C/L	.	8cc\L	.	8A\L	ff	8ccL 8c/	.	8ff#XL 8dd#X\	ff	8aa\L	.	8cccL\	.
.	8C/J	.	.	.	.	.	8aJ 8d#\	8ff#J 8a\	.	8ccc\J	.	8C/J	.	8cc\J	.	8A\J	.	8ccJ 8c/	.	8ff#J 8dd#\	.	8aa\J	.	8cccJ\	.
*	*tremolo	*	*	*	*	*	*tremolo	*tremolo	*	*tremolo	*	*tremolo	*	*tremolo	*	*tremolo	*	*tremolo	*	*tremolo	*	*tremolo	*	*tremolo	*
.	8C/L	.	.	.	.	.	8aL 8d#\	8ff#L 8a\	.	8ccc\L	.	8C/L	.	8cc\L	.	8A\L	.	8ccL 8c/	.	8ff#L 8dd#\	.	8aa\L	.	8ccc\L	.
.	8C/	.	.	.	.	.	8a 8d#\	8ff# 8a\	.	8ccc\	.	8C/	.	8cc\	.	8A\	.	8cc 8c/	.	8ff# 8dd#\	.	8aa\	.	8ccc\	.
.	8C/J	.	.	.	.	.	8aJ 8d#\	8ff#J 8a\	.	8ccc\J	.	8C/J	.	8cc\J	.	8A\J	.	8ccJ 8c/	.	8ff#J 8dd#\	.	8aa\J	.	8ccc\J	.
*	*Xtremolo	*	*	*	*	*	*Xtremolo	*Xtremolo	*	*Xtremolo	*	*Xtremolo	*	*Xtremolo	*	*Xtremolo	*	*Xtremolo	*	*Xtremolo	*	*Xtremolo	*	*Xtremolo	*
*	*	*	*	*	*	*	*	*	*	*	*	*Xrep	*	*Xrep	*	*Xrep	*	*	*	*Xrep	*	*Xrep	*	*	*
=7	=7	=7	=7	=7	=7	=7	=7	=7	=7	=7	=7	=7	=7	=7	=7	=7	=7	=7	=7	=7	=7	=7	=7	=7	=7
*	*	*	*	*2\right	*	*	*	*	*	*	*	*	*	*	*	*	*	*	*	*	*	*	*	*	*
2.ryy	8C/	.	2.ryy	4r	.	.	8g 8e\	8gg 8cc\	.	(>32ccc\LLL	.	8C/	.	8cc\	.	8G\	.	8cc 8c/	.	8ee 8cc\	.	8gg\	.	(>32ccc\LLL	.
.	.	.	.	.	.	.	.	.	.	32ddd\J	.	.	.	.	.	.	.	.	.	.	.	.	.	32ddd\J	.
.	.	.	.	.	.	.	.	.	.	16eee\JJ)	.	.	.	.	.	.	.	.	.	.	.	.	.	16eee\JJ)	.
.	8r	.	.	.	.	.	8r	8r	.	8r	.	8r	.	8r	.	8r	.	8r	.	8r	.	8r	.	8r	.
.	8r;>	.	.	8r;>	.	.	8r;>	8r;>	.	8r;>	.	8r;>	.	8r;>	.	8r;>	.	8r;>	.	8r;>	.	8r;>	.	8r;>	.
.	4r	.	.	8r	.	.	4r	4r	.	4r	.	4r	.	4r	.	4r	.	4r	.	4r	.	4r	.	4r	.
.	.	.	.	8e/	Jak	.	.	.	.	.	.	.	.	.	.	.	.	.	.	.	.	.	.	.	.
.	8r	.	.	8f/	być	.	8r	8r	.	8r	.	8r	.	8r	.	8r	.	8r	.	8r	.	8r	.	8r	.
!!LO:PB:g=original
=8	=8	=8	=8	=8	=8	=8	=8	=8	=8	=8	=8	=8	=8	=8	=8	=8	=8	=8	=8	=8	=8	=8	=8	=8	=8
!	!	!LO:DY:b:rj	!	!	!	!	!	!	!	!	!	!	!	!	!	!	!	!	!	!	!	!	!	!	!
2.ryy	4C/	p	2.ryy	8g/	we-	.	8r	8r	.	2.r	.	2.r	.	2.r	.	2.r	.	2.r	.	4g 4e/	.	2.ryy	.	2.ryy	.
!	!	!	!	!	!	!	!	!	!LO:DY:b:rj	!	!	!	!	!	!	!	!	!	!	!	!	!	!	!	!
.	.	.	.	8ee\	-so-	.	8c\L	8eL 8G/	p	.	.	.	.	.	.	.	.	.	.	.	.	.	.	.	.
.	8r	.	.	8dd\	-łym	.	8c\J	8eJ 8G/	.	.	.	.	.	.	.	.	.	.	.	8r	.	.	.	.	.
*	*	*	*	*	*	*	*rep	*rep	*	*	*	*	*	*	*	*	*	*	*	*	*	*	*	*	*
.	4C/	.	.	8dd\	przez	.	8r	8r	.	.	.	.	.	.	.	.	.	.	.	4g 4e/	.	.	.	.	.
.	.	.	.	8cc\	ca-	.	8c\L	8eL 8G/	.	.	.	.	.	.	.	.	.	.	.	.	.	.	.	.	.
.	8r	.	.	8b\	-łe	.	8c\J	8eJ 8G/	.	.	.	.	.	.	.	.	.	.	.	8r	.	.	.	.	.
*	*	*	*	*	*	*	*Xrep	*Xrep	*	*	*	*	*	*	*	*	*	*	*	*	*	*	*	*	*
=9	=9	=9	=9	=9	=9	=9	=9	=9	=9	=9	=9	=9	=9	=9	=9	=9	=9	=9	=9	=9	=9	=9	=9	=9	=9
2.ryy	4F\	.	2.ryy	(>8.a/	ży-	.	8r	8r	.	8r	.	2.ryy	.	2.ryy	.	2.r	.	2.r	.	8a 8f/	.	2.ryy	.	2.ryy	.
.	.	.	.	.	.	.	.	.	.	(<8qa/	.	.	.	.	.	.	.	.	.	8qb 8qg/	.	.	.	.	.
.	.	.	.	.	.	.	8c\L	8fL 8A/	.	16g/LL	.	.	.	.	.	.	.	.	.	(<16aLL 16f/	.	.	.	.	.
.	.	.	.	16g#X/LL	.	.	.	.	.	16f#X/	.	.	.	.	.	.	.	.	.	16g#X 16e/	.	.	.	.	.
.	8r	.	.	16a/	.	.	8c\J	8fJ 8A/	.	16g/	.	.	.	.	.	.	.	.	.	16a 16f/	.	.	.	.	.
.	.	.	.	16b/JJ)	.	.	.	.	.	16a/JJ	.	.	.	.	.	.	.	.	.	16bJJ 16g#/)	.	.	.	.	.
*	*	*	*	*	*	*	*rep	*rep	*	*	*	*	*	*	*	*	*	*	*	*	*	*	*	*	*
.	4F\	.	.	8a/	-cie	.	8r	8r	.	8g/)	.	.	.	.	.	.	.	.	.	8a 8f/	.	.	.	.	.
.	.	.	.	8a/	Mym	.	8c\L	8fL 8A/	.	8r	.	.	.	.	.	.	.	.	.	8r	.	.	.	.	.
.	8r	.	.	8a/	przy-	.	8c\J	8fJ 8A/	.	8r	.	.	.	.	.	.	.	.	.	8r	.	.	.	.	.
*	*	*	*	*	*	*	*Xrep	*Xrep	*	*	*	*	*	*	*	*	*	*	*	*	*	*	*	*	*
=10	=10	=10	=10	=10	=10	=10	=10	=10	=10	=10	=10	=10	=10	=10	=10	=10	=10	=10	=10	=10	=10	=10	=10	=10	=10
2.ryy	4G\	.	2.ryy	8a/	-kła-	.	8r	8r	.	2.r	.	2.ryy	.	2.ryy	.	2.r	.	2.r	.	8b 8g/	.	2.ryy	.	2.ryy	.
.	.	.	.	8d/	-dem	.	8B/L	8fL 8G/	.	.	.	.	.	.	.	.	.	.	.	8r	.	.	.	.	.
.	8r	.	.	8e/	wnet	.	8B/J	8fJ 8G/	.	.	.	.	.	.	.	.	.	.	.	8r	.	.	.	.	.
*	*	*	*	*	*	*	*rep	*rep	*	*	*	*	*	*	*	*	*	*	*	*	*	*	*	*	*
.	4G\	.	.	8g/	się	.	8r	8r	.	.	.	.	.	.	.	.	.	.	.	8b 8g/	.	.	.	.	.
.	.	.	.	8f/	na-	.	8B/L	8fL 8G/	.	.	.	.	.	.	.	.	.	.	.	8r	.	.	.	.	.
.	8r	.	.	8d/	-u-	.	8B/J	8fJ 8G/	.	.	.	.	.	.	.	.	.	.	.	8r	.	.	.	.	.
*	*	*	*	*	*	*	*Xrep	*Xrep	*	*	*	*	*	*	*	*	*	*	*	*	*	*	*	*	*
=11	=11	=11	=11	=11	=11	=11	=11	=11	=11	=11	=11	=11	=11	=11	=11	=11	=11	=11	=11	=11	=11	=11	=11	=11	=11
2.ryy	4C/	.	2.ryy	4.e/	-czy-	.	8r	8r	.	8r	.	2.ryy	.	2.ryy	.	2.r	.	2.r	.	8cc 8e/	.	2.ryy	.	2.ryy	.
.	.	.	.	.	.	.	.	.	.	8qdd/	.	.	.	.	.	.	.	.	.	.	.	.	.	.	.
.	.	.	.	.	.	.	8c\L	8eL 8G/	.	(>16cc\LL	.	.	.	.	.	.	.	.	.	8r	.	.	.	.	.
.	.	.	.	.	.	.	.	.	.	16b\	.	.	.	.	.	.	.	.	.	.	.	.	.	.	.
.	8r	.	.	.	.	.	8c\J	8eJ 8G/	.	16cc\	.	.	.	.	.	.	.	.	.	8r	.	.	.	.	.
.	.	.	.	.	.	.	.	.	.	16dd\JJ	.	.	.	.	.	.	.	.	.	.	.	.	.	.	.
*	*	*	*	*	*	*	*rep	*rep	*	*	*	*	*	*	*	*	*	*	*	*	*	*	*	*	*
.	4C/	.	.	8c/	-cie.	.	8r	8r	.	8cc\)	.	.	.	.	.	.	.	.	.	8r	.	.	.	.	.
.	.	.	.	8e/	Czy	.	8c\L	8eL 8G/	.	8r	.	.	.	.	.	.	.	.	.	8eL 8c/	.	.	.	.	.
.	8r	.	.	8f/	na	.	8c\J	8eJ 8G/	.	8r	.	.	.	.	.	.	.	.	.	8fJ 8d/	.	.	.	.	.
*	*	*	*	*	*	*	*Xrep	*Xrep	*	*	*	*	*	*	*	*	*	*	*	*	*	*	*	*	*
!!LO:PB:g=original
=12	=12	=12	=12	=12	=12	=12	=12	=12	=12	=12	=12	=12	=12	=12	=12	=12	=12	=12	=12	=12	=12	=12	=12	=12	=12
2.ryy	4C/	.	2.ryy	8g/	.	.	8r	8r	.	2.r	.	2.r	.	2.r	.	2.r	.	2.r	.	8gL 8e/	.	2.r	.	2.r	.
.	.	.	.	8ee\	.	.	8c\L	8eL 8G/	.	.	.	.	.	.	.	.	.	.	.	8ee 8cc/	.	.	.	.	.
.	8r	.	.	8dd\	.	.	8c\J	8eJ 8G/	.	.	.	.	.	.	.	.	.	.	.	8ddJ 8b/	.	.	.	.	.
*	*	*	*	*	*	*	*rep	*rep	*	*	*	*	*	*	*	*	*	*	*	*	*	*	*	*	*
.	4C/	.	.	8dd\	.	.	8r	8r	.	.	.	.	.	.	.	.	.	.	.	(<8ddL 8b/	.	.	.	.	.
.	.	.	.	8cc\	.	.	8c\L	8eL 8G/	.	.	.	.	.	.	.	.	.	.	.	8cc 8a/)	.	.	.	.	.
.	8r	.	.	8b\	.	.	8c\J	8eJ 8G/	.	.	.	.	.	.	.	.	.	.	.	8bJ 8g'</	.	.	.	.	.
*	*	*	*	*	*	*	*Xrep	*Xrep	*	*	*	*	*	*	*	*	*	*	*	*	*	*	*	*	*
=13	=13	=13	=13	=13	=13	=13	=13	=13	=13	=13	=13	=13	=13	=13	=13	=13	=13	=13	=13	=13	=13	=13	=13	=13	=13
2.ryy	4F\	.	2.ryy	8.a/L	.	.	8r	8r	.	8r	.	2.ryy	.	2.ryy	.	2.ryy	.	2.r	.	8a 8f/	.	8r	.	8r	.
.	.	.	.	.	.	.	.	.	.	(>8qbb/	.	.	.	.	.	.	.	.	.	.	.	8qgg/	.	(>8qbb/	.
.	.	.	.	.	.	.	8c\L	8fL 8A/	.	16aa\LL	.	.	.	.	.	.	.	.	.	8r	.	16ff\LL	.	16aa\LL	.
.	.	.	.	16g#X/L	.	.	.	.	.	16gg#X\	.	.	.	.	.	.	.	.	.	.	.	16ee\	.	16gg#X\	.
.	8r	.	.	16a/	.	.	8c\J	8fJ 8A/	.	16aa\	.	.	.	.	.	.	.	.	.	8r	.	16ff\	.	16aa\	.
.	.	.	.	16b/JJ	.	.	.	.	.	16bb\JJ	.	.	.	.	.	.	.	.	.	.	.	16gg\JJ	.	16bb\JJ	.
*	*	*	*	*	*	*	*rep	*rep	*	*	*	*	*	*	*	*	*	*	*	*	*	*	*	*	*
.	4F\	.	.	8a/	.	.	8r	8r	.	8aa\)	.	.	.	.	.	.	.	.	.	8r	.	8ff\L	.	8aa\)	.
.	.	.	.	8a/	.	.	8c\L	8fL 8A/	.	8r	.	.	.	.	.	.	.	.	.	8aL 8f/	.	8ff\	.	8r	.
.	8r	.	.	8a/	.	.	8c\J	8fJ 8A/	.	8r	.	.	.	.	.	.	.	.	.	8aJ 8f/	.	8ff\J	.	8r	.
*	*	*	*	*	*	*	*Xrep	*Xrep	*	*	*	*	*	*	*	*	*	*	*	*	*	*	*	*	*
=14	=14	=14	=14	=14	=14	=14	=14	=14	=14	=14	=14	=14	=14	=14	=14	=14	=14	=14	=14	=14	=14	=14	=14	=14	=14
2.ryy	4G\	.	2.ryy	8a/	.	.	8r	8r	.	2.r	.	2.ryy	.	2.ryy	.	2.ryy	.	2.ryy	.	2.ryy	.	2.ryy	.	2.ryy	.
.	.	.	.	8d/	.	.	8dL 8B\	8fL 8G/	.	.	.	.	.	.	.	.	.	.	.	.	.	.	.	.	.
.	8r	.	.	8e/	.	.	8dJ 8B\	8fJ 8G/	.	.	.	.	.	.	.	.	.	.	.	.	.	.	.	.	.
*	*	*	*	*	*	*	*rep	*rep	*	*	*	*	*	*	*	*	*	*	*	*	*	*	*	*	*
.	4G\	.	.	8g/	.	.	8r	8r	.	.	.	.	.	.	.	.	.	.	.	.	.	.	.	.	.
.	.	.	.	8f/	.	.	8dL 8B\	8fL 8G/	.	.	.	.	.	.	.	.	.	.	.	.	.	.	.	.	.
.	8r	.	.	8d/	.	.	8dJ 8B\	8fJ 8G/	.	.	.	.	.	.	.	.	.	.	.	.	.	.	.	.	.
*	*	*	*	*	*	*	*Xrep	*Xrep	*	*	*	*	*	*	*	*	*	*	*	*	*	*	*	*	*
=15	=15	=15	=15	=15	=15	=15	=15	=15	=15	=15	=15	=15	=15	=15	=15	=15	=15	=15	=15	=15	=15	=15	=15	=15	=15
2.ryy	4C/	.	2.ryy	(<4c/	.	.	8r	8r	.	8r	.	2.ryy	.	2.ryy	.	2.ryy	.	2.ryy	.	2.ryy	.	2.ryy	.	2.ryy	.
.	.	.	.	.	.	.	.	.	.	8qdd/	.	.	.	.	.	.	.	.	.	.	.	.	.	.	.
.	.	.	.	.	.	.	8c\L	8eL 8G/	.	16cc\LL	.	.	.	.	.	.	.	.	.	.	.	.	.	.	.
.	.	.	.	.	.	.	.	.	.	16b\	.	.	.	.	.	.	.	.	.	.	.	.	.	.	.
.	8r	.	.	16e/LL	.	.	8c\J	8eJ 8G/	.	16cc\	.	.	.	.	.	.	.	.	.	.	.	.	.	.	.
.	.	.	.	16d/JJ)	.	.	.	.	.	16dd\JJ	.	.	.	.	.	.	.	.	.	.	.	.	.	.	.
*	*	*	*	*	*	*	*rep	*rep	*	*	*	*	*	*	*	*	*	*	*	*	*	*	*	*	*
.	4C/	.	.	8c/	.	.	8r	8r	.	8cc\	.	.	.	.	.	.	.	.	.	.	.	.	.	.	.
.	.	.	.	8cc\	.	.	8c\L	8eL 8G/	.	8r	.	.	.	.	.	.	.	.	.	.	.	.	.	.	.
.	8r	.	.	8b\	.	.	8c\J	8eJ 8G/	.	8r	.	.	.	.	.	.	.	.	.	.	.	.	.	.	.
*	*	*	*	*	*	*	*Xrep	*Xrep	*	*	*	*	*	*	*	*	*	*	*	*	*	*	*	*	*
!!LO:PB:g=original
=16	=16	=16	=16	=16	=16	=16	=16	=16	=16	=16	=16	=16	=16	=16	=16	=16	=16	=16	=16	=16	=16	=16	=16	=16	=16
*	*^	*	*	*	*	*	*	*	*	*	*	*	*	*	*	*	*	*	*	*	*	*	*	*	*
.	.	.	.	.	8qb/	.	.	.	.	.	.	.	.	.	.	.	.	.	.	.	.	.	.	.	.	.
2.ryy	8rc	4AA\	.	2.ryy	8a/	.	.	8r	8r	.	4r	.	2.ryy	.	2.ryy	.	2.ryy	.	2.ryy	.	2.r	.	2.r	.	2.r	.
.	8E/L	.	.	.	8g#X/	.	.	8A/L	8eL 8c/	.	.	.	.	.	.	.	.	.	.	.	.	.	.	.	.	.
.	8A/J	8rEE	.	.	8a/	.	.	8A/J	8eJ 8c/	.	8r	.	.	.	.	.	.	.	.	.	.	.	.	.	.	.
.	.	.	.	.	8qb/	.	.	.	.	.	(<8qbb/	.	.	.	.	.	.	.	.	.	.	.	.	.	.	.
*	*	*	*	*	*	*	*	*rep	*rep	*	*	*	*	*	*	*	*	*	*	*	*	*	*	*	*	*
.	8rc	4C\	.	.	8a/	.	.	8r	8r	.	8aa\L)	.	.	.	.	.	.	.	.	.	.	.	.	.	.	.
.	8E/L	.	.	.	8g#/	.	.	8A/L	8eL 8c/	.	8gg#X'>\	.	.	.	.	.	.	.	.	.	.	.	.	.	.	.
.	8A/J	8rEE	.	.	8a/	.	.	8A/J	8eJ 8c/	.	8aa~>\J	.	.	.	.	.	.	.	.	.	.	.	.	.	.	.
*	*	*	*	*	*	*	*	*Xrep	*Xrep	*	*	*	*	*	*	*	*	*	*	*	*	*	*	*	*	*
=17	=17	=17	=17	=17	=17	=17	=17	=17	=17	=17	=17	=17	=17	=17	=17	=17	=17	=17	=17	=17	=17	=17	=17	=17	=17	=17
2.ryy	8rc	4E\	.	2.ryy	8b/	.	.	8r	8r	.	8bb\	.	2.ryy	.	2.ryy	.	2.ryy	.	2.ryy	.	2.r	.	2.r	.	2.r	.
.	8E/L	.	.	.	4e/	.	.	8E/L	8G#X/L	.	4ee^>\	.	.	.	.	.	.	.	.	.	.	.	.	.	.	.
.	8E/J	8rEE	.	.	.	.	.	8F#X/J	8A/J	.	.	.	.	.	.	.	.	.	.	.	.	.	.	.	.	.
*	*tremolo	*	*	*	*	*	*	*	*	*	*	*	*	*	*	*	*	*	*	*	*	*	*	*	*	*
.	8E/L	4rEE	.	.	8r	.	.	8G#X/L	8B/L	.	8bb\	.	.	.	.	.	.	.	.	.	.	.	.	.	.	.
.	8E/	.	.	.	8ee\	.	.	8A/	8c/	.	4ee^>\	.	.	.	.	.	.	.	.	.	.	.	.	.	.	.
.	8E/J	8rEE	.	.	8dd\	.	.	8B/J	8d/J	.	.	.	.	.	.	.	.	.	.	.	.	.	.	.	.	.
*	*Xtremolo	*	*	*	*	*	*	*	*	*	*	*	*	*	*	*	*	*	*	*	*	*	*	*	*	*
=18	=18	=18	=18	=18	=18	=18	=18	=18	=18	=18	=18	=18	=18	=18	=18	=18	=18	=18	=18	=18	=18	=18	=18	=18	=18	=18
*	*	*	*	*	*	*	*	*	*	*	*	*	*	*	*	*	*	*	*	*	*^	*	*	*	*	*
!	!	!LO:N:vis=4	!	!	!	!	!	!	!	!	!	!	!	!	!	!	!	!	!	!	!	!	!	!	!	!	!
2.ryy	8rc	8C\	.	2.ryy	8gn/	.	.	8r	8r	.	4r	.	2.ryy	.	2.ryy	.	2.ryy	.	2.ryy	.	8g 8e/	4.ryy	.	2.r	.	2.r	.
!	!	!LO:N:vis=4	!	!	!	!	!	!	!	!	!	!	!	!	!	!	!	!	!	!	!	!	!	!	!	!	!
.	8Gn/L	8Gn\	.	.	8ee\	.	.	8c\L	8eL 8G/	.	.	.	.	.	.	.	.	.	.	.	4ee 4cc\	.	.	.	.	.	.
.	8c/J	8rEE	.	.	8dd\	.	.	8c\J	8eJ 8G/	.	8r	.	.	.	.	.	.	.	.	.	.	.	.	.	.	.	.
.	.	.	.	.	8qdd/	.	.	.	.	.	(<8qddd/	.	.	.	.	.	.	.	.	.	.	.	.	.	.	.	.
*	*rep	*	*	*	*	*	*	*rep	*rep	*	*	*	*	*	*	*	*	*	*	*	*	*	*	*	*	*	*
!	!	!LO:N:vis=4	!	!	!	!	!	!	!	!	!	!	!	!	!	!	!	!	!	!	!	!	!	!	!	!	!
.	8rc	8E\	.	.	8cc\	.	.	8r	8r	.	8ccc\L)	.	.	.	.	.	.	.	.	.	(>4.ee/	(>4.cc\	.	.	.	.	.
.	8G/L	8G\yy	.	.	8b\	.	.	8c\L	8eL 8G/	.	8bb'>\	.	.	.	.	.	.	.	.	.	.	.	.	.	.	.	.
.	8c/J	8rEE	.	.	8cc\	.	.	8c\J	8eJ 8G/	.	8ccc~>\J	.	.	.	.	.	.	.	.	.	.	.	.	.	.	.	.
*	*Xrep	*	*	*	*	*	*	*Xrep	*Xrep	*	*	*	*	*	*	*	*	*	*	*	*	*	*	*	*	*	*
=19	=19	=19	=19	=19	=19	=19	=19	=19	=19	=19	=19	=19	=19	=19	=19	=19	=19	=19	=19	=19	=19	=19	=19	=19	=19	=19	=19
2.ryy	8rc	4G\	.	2.ryy	[>4.dd\	.	.	8r	8r	.	8ddd\	.	2.ryy	.	2.ryy	.	2.ryy	.	8r	.	8dd/)	8b\)	.	2.r	.	8ddd\	.
.	8G/L	.	.	.	.	.	.	8G/L	8B/L	.	[>4gg\	.	.	.	.	.	.	.	8g/L	.	4g/	8rc	.	.	.	4gg\	.
.	8G/J	8rEE	.	.	.	.	.	8A/J	8c/J	.	.	.	.	.	.	.	.	.	8g/J	.	.	8rc	.	.	.	.	.
*	*tremolo	*	*	*	*	*	*	*	*	*	*	*	*	*	*	*	*	*	*tremolo	*	*	*	*	*	*	*	*
.	8G/L	4rEE	.	.	8dd\]	.	.	8B/L	8d/L	.	8gg\]	.	.	.	.	.	.	.	8g/L	.	8dd/	4rc	.	.	.	8ddd\	.
.	8G/	.	.	.	8g/	.	.	8c/	8e/	.	8gg\L	.	.	.	.	.	.	.	8g/	.	4g/	.	.	.	.	4gg\	.
.	8G/J	8rEE	.	.	8g/	.	.	8d/J	8f/J	.	8gg\J	.	.	.	.	.	.	.	8g/J	.	.	8rc	.	.	.	.	.
*	*Xtremolo	*	*	*	*	*	*	*	*	*	*	*	*	*	*	*	*	*	*Xtremolo	*	*	*	*	*	*	*	*
!!LO:PB:g=original
*	*v	*v	*	*	*	*	*	*	*	*	*	*	*	*	*	*	*	*	*	*	*v	*v	*	*	*	*	*
=20	=20	=20	=20	=20	=20	=20	=20	=20	=20	=20	=20	=20	=20	=20	=20	=20	=20	=20	=20	=20	=20	=20	=20	=20	=20
*	*	*	*	*	*	*	*	*	*	*	*	*	*	*	*	*	*	*^	*	*	*	*	*	*	*
2.ryy	4c\	.	2.ryy	8ee\	.	.	8r	8r	.	8r	.	2.r	.	2.r	.	2.r	.	8g/	2.re	.	8ee 8g\	.	2.r	.	8eee\	.
.	.	.	.	8ff\	.	.	8g\L	8cc\L	.	(>8ff\L	.	.	.	.	.	.	.	8r	.	.	8r	.	.	.	8r	.
.	8r	.	.	8ee\	.	.	8g\J	8cc\J	.	8ee\J)	.	.	.	.	.	.	.	8r	.	.	8r	.	.	.	8r	.
.	4G#X\	.	.	8dd\	.	.	8r	8r	.	8r	.	.	.	.	.	.	.	4r	.	.	4r	.	.	.	4r	.
.	.	.	.	8ee\	.	.	8e\L	8b\L	.	(>8ee\L	.	.	.	.	.	.	.	.	.	.	.	.	.	.	.	.
.	8r	.	.	8dd\	.	.	8e\J	8b\J	.	8dd\J)	.	.	.	.	.	.	.	8r	.	.	8r	.	.	.	8r	.
*	*	*	*	*	*	*	*	*	*	*	*	*	*	*	*	*	*	*v	*v	*	*	*	*	*	*	*
=21	=21	=21	=21	=21	=21	=21	=21	=21	=21	=21	=21	=21	=21	=21	=21	=21	=21	=21	=21	=21	=21	=21	=21	=21	=21
2.ryy	4A\	.	2.ryy	8cc\L	.	.	8r	8r	.	8r	.	2.ryy	.	2.ryy	.	2.ryy	.	2.ryy	.	2.ryy	.	2.ryy	.	2.ryy	.
.	.	.	.	8dd\J	.	.	8e\L	8a/L	.	(>8dd\L	.	.	.	.	.	.	.	.	.	.	.	.	.	.	.
.	8r	.	.	8cc\	.	.	8e\J	8a/J	.	8cc\J)	.	.	.	.	.	.	.	.	.	.	.	.	.	.	.
.	4E\	.	.	8b\L	.	.	8r	8r	.	8r	.	.	.	.	.	.	.	.	.	.	.	.	.	.	.
.	.	.	.	8cc\J	.	.	8e\L	8g#X/L	.	(>8cc\L	.	.	.	.	.	.	.	.	.	.	.	.	.	.	.
.	8r	.	.	8b\	.	.	8e\J	8g#/J	.	8b\J)	.	.	.	.	.	.	.	.	.	.	.	.	.	.	.
=22	=22	=22	=22	=22	=22	=22	=22	=22	=22	=22	=22	=22	=22	=22	=22	=22	=22	=22	=22	=22	=22	=22	=22	=22	=22
!	!LO:TX:a:Bi:t=rall.	!	!	!	!	!	!	!	!	!	!	!	!	!	!	!	!	!	!	!	!	!	!	!	!
2.ryy	2.F\	.	2.ryy	8a/	.	.	2.cn\	4.a/	.	2.a/	.	2.ryy	.	2.ryy	.	2.ryy	.	2.ryy	.	2.ryy	.	2.ryy	.	2.ryy	.
.	.	.	.	8g#X/	.	.	.	.	.	.	.	.	.	.	.	.	.	.	.	.	.	.	.	.	.
.	.	.	.	8a/	.	.	.	.	.	.	.	.	.	.	.	.	.	.	.	.	.	.	.	.	.
.	.	.	.	8cc\	.	.	.	4.A/	.	.	.	.	.	.	.	.	.	.	.	.	.	.	.	.	.
.	.	.	.	8b\	.	.	.	.	.	.	.	.	.	.	.	.	.	.	.	.	.	.	.	.	.
.	.	.	.	8a\	.	.	.	.	.	.	.	.	.	.	.	.	.	.	.	.	.	.	.	.	.
=23	=23	=23	=23	=23	=23	=23	=23	=23	=23	=23	=23	=23	=23	=23	=23	=23	=23	=23	=23	=23	=23	=23	=23	=23	=23
*	*^	*	*	*	*	*	*	*	*	*	*	*	*	*	*	*	*	*	*	*	*	*	*	*	*
!	!LO:TX:a:t=P:problem=note position	!	!	!	!	!	!	!	!	!	!	!	!	!	!	!	!	!	!	!	!	!	!	!	!	!
2.ryy	[>2.E/	4E\	.	2.ryy	4.e/	.	.	(<4.G#X/	(<4.B/	.	(<4.e/	.	2.ryy	.	2.ryy	.	2.ryy	.	2.ryy	.	2.ryy	.	2.ryy	.	2.ryy	.
.	.	8rEE	.	.	.	.	.	.	.	.	.	.	.	.	.	.	.	.	.	.	.	.	.	.	.	.
.	.	4rEE	.	.	(<8fn/L	.	.	4.A/)	4.c/)	.	4.fn/)	.	.	.	.	.	.	.	.	.	.	.	.	.	.	.
.	.	.	.	.	8cc/	.	.	.	.	.	.	.	.	.	.	.	.	.	.	.	.	.	.	.	.	.
.	.	8rEE	.	.	8f/J)	.	.	.	.	.	.	.	.	.	.	.	.	.	.	.	.	.	.	.	.	.
=24	=24	=24	=24	=24	=24	=24	=24	=24	=24	=24	=24	=24	=24	=24	=24	=24	=24	=24	=24	=24	=24	=24	=24	=24	=24	=24
2.ryy	2.E/]	2.rGG	.	2.ryy	4.e/	.	.	(<4.G#X/	(<4.B/	.	(<4.e/	.	2.ryy	.	2.ryy	.	2.ryy	.	2.ryy	.	2.ryy	.	2.ryy	.	2.ryy	.
.	.	.	.	.	(<8f/L	.	.	4.A/)	4.c/)	.	4.f/)	.	.	.	.	.	.	.	.	.	.	.	.	.	.	.
.	.	.	.	.	8cc/	.	.	.	.	.	.	.	.	.	.	.	.	.	.	.	.	.	.	.	.	.
.	.	.	.	.	8f/J)	.	.	.	.	.	.	.	.	.	.	.	.	.	.	.	.	.	.	.	.	.
!!LO:PB:g=original
=25	=25	=25	=25	=25	=25	=25	=25	=25	=25	=25	=25	=25	=25	=25	=25	=25	=25	=25	=25	=25	=25	=25	=25	=25	=25	=25
2.ryy	8E/	2.rGG	.	2.ryy	4.e/	.	.	4G#X/	4B/	.	4e/	.	8r	.	8r	.	8r	.	8r	.	4r	.	4r	.	4r	.
.	8rc	.	.	.	.	.	.	.	.	.	.	.	8r	.	8r	.	8r	.	8r	.	.	.	.	.	.	.
!	!	!	!	!	!	!	!	!	!	!	!	!	!	!	!	!	!	!	!	!LO:DY:b:rj	!	!	!	!	!	!
.	8rc	.	.	.	.	.	.	8r	8r	.	8r	.	16E\LL	.	16ee\LL	.	16E\LL	.	16eeLL 16e/	f	8r	.	8r	.	8r	.
.	.	.	.	.	.	.	.	.	.	.	.	.	16E\JJ	.	16ee\JJ	.	16E\JJ	.	16eeJJ 16e/	.	.	.	.	.	.	.
!	!	!	!	!	!	!	!	!	!	!	!	!	!	!	!	!	!LO:TX:a:t=P:problem=w źródle fermata za nutą	!	!LO:TX:a:t=P:problem=w źródle fermata za nutą	!	!	!	!	!	!	!
!	!	!	!	!	!	!	!	!	!	!	!	!	!LO:TX:a:t=P:problem=w źródle fermata za nutą	!	!LO:TX:a:t=P:problem=w źródle fermata za nutą	!	!	!	!	!	!	!	!	!	!	!
.	8rc;>	.	.	.	8e/	.	.	8r;>	8r;>	.	8r;>	.	8E;>\	.	8ee;>\	.	8E;>\	.	8ee 8e;>/	.	8r;>	.	8r;>	.	8r;>	.
.	8rc	.	.	.	8e/	.	.	8r	8r	.	8r	.	8r	.	8r	.	8r	.	8r	.	8eL 8c/	.	8cc\L	.	8ee'>\L	.
.	8rc	.	.	.	8f/	.	.	8r	8r	.	8r	.	8r	.	8r	.	8r	.	8r	.	8fJ 8d/	.	8dd\J	.	8ff'>\J	.
=26	=26	=26	=26	=26	=26	=26	=26	=26	=26	=26	=26	=26	=26	=26	=26	=26	=26	=26	=26	=26	=26	=26	=26	=26	=26	=26
2.ryy	8rc	4C\	.	2.ryy	8g/	.	.	8r	8r	.	2.r	.	2.r	.	2.r	.	4C/	.	8r	.	8gL 8e/	.	8ee\L	.	8gg\L	.
!	!LO:TX:a:Bi:t=pizz	!	!	!	!	!	!	!	!	!	!	!	!	!	!	!	!	!	!	!	!	!	!	!	!	!
!	!	!	!	!	!	!	!	!	!	!	!	!	!	!	!	!	!	!	!	!LO:DY:b:rj	!	!	!	!	!	!
.	8C/L	.	.	.	8ee\	.	.	8c\L	8eL 8G/	.	.	.	.	.	.	.	.	.	8ccL 8e/	mf	8ee 8cc/	.	8ccc\	.	8eee\	.
.	8G/J	8ryy	.	.	8dd\	.	.	8c\J	8eJ 8G/	.	.	.	.	.	.	.	8r	.	8ccJ 8e/	.	8ddJ 8b/	.	8bb\J	.	8ddd\J	.
*	*rep	*	*	*	*	*	*	*rep	*rep	*	*	*	*	*	*	*	*	*	*rep	*	*	*	*	*	*	*
.	8rc	4C\	.	.	8dd\	.	.	8r	8r	.	.	.	.	.	.	.	4C/	.	8r	.	8ddL 8b/	.	8bb\L	.	8ddd\L	.
.	8C/L	.	.	.	8cc\	.	.	8c\L	8eL 8G/	.	.	.	.	.	.	.	.	.	8ccL 8e/	.	8cc 8a/	.	8aa\	.	8ccc\	.
.	8G/J	8rEE	.	.	8b\	.	.	8c\J	8eJ 8G/	.	.	.	.	.	.	.	8r	.	8ccJ 8e/	.	8bJ 8g/	.	8gg\J	.	8bb\J	.
*	*Xrep	*	*	*	*	*	*	*Xrep	*Xrep	*	*	*	*	*	*	*	*	*	*Xrep	*	*	*	*	*	*	*
=27	=27	=27	=27	=27	=27	=27	=27	=27	=27	=27	=27	=27	=27	=27	=27	=27	=27	=27	=27	=27	=27	=27	=27	=27	=27	=27
*	*	*	*	*	*	*	*	*	*	*	*	*	*	*	*	*	*	*	*	*	*^	*	*	*	*	*
2.ryy	8rc	4F\	.	2.ryy	8.a/L	.	.	8r	8r	.	8r	.	2.ryy	.	2.ryy	.	4F\	.	8r	.	8a 8f/	2d\yy	.	8ff\	.	8aa\	.
.	.	.	.	.	.	.	.	.	.	.	8qbb/	.	.	.	.	.	.	.	.	.	(<8qb 8qg/	.	.	8qgg/	.	8qbb/	.
.	8F/L	.	.	.	.	.	.	8c\L	8fL 8A/	.	(>16aa\LL	.	.	.	.	.	.	.	8ccL 8c/	.	16aLL 16f/	.	.	(>16ff\LL	.	(>16aa\LL	.
.	.	.	.	.	16g#X/L	.	.	.	.	.	16gg#X\	.	.	.	.	.	.	.	.	.	16g#X 16e/	.	.	16ee\	.	16gg#X\	.
.	8A/J	8rEE	.	.	16a/	.	.	8c\J	8fJ 8A/	.	16aa\	.	.	.	.	.	8r	.	8ccJ 8c/	.	16a 16f/	.	.	16ff\	.	16aa\	.
.	.	.	.	.	16b/JJ	.	.	.	.	.	16bb\JJ)	.	.	.	.	.	.	.	.	.	16bJJ 16g#/	.	.	16gg\JJ	.	16bb\JJ	.
*	*rep	*	*	*	*	*	*	*rep	*rep	*	*	*	*	*	*	*	*	*	*rep	*	*	*	*	*	*	*	*
.	8rc	4F\	.	.	8a/	.	.	8r	8r	.	8aa\	.	.	.	.	.	4F\	.	8r	.	8a 8f/)	.	.	8ff\)	.	8aa\)	.
.	8F/L	.	.	.	8a/	.	.	8c\L	8fL 8A/	.	8r	.	.	.	.	.	.	.	8ccL 8c/	.	8a/L	8rc	.	8r	.	8aa\L	.
.	8A/J	8rEE	.	.	8a/	.	.	8c\J	8fJ 8A/	.	8r	.	.	.	.	.	8r	.	8ccJ 8c/	.	8a/J	8rc	.	8r	.	8aa\J	.
*	*Xrep	*	*	*	*	*	*	*Xrep	*Xrep	*	*	*	*	*	*	*	*	*	*Xrep	*	*	*	*	*	*	*	*
*	*v	*v	*	*	*	*	*	*	*	*	*	*	*	*	*	*	*	*	*	*	*	*	*	*	*	*	*
=28	=28	=28	=28	=28	=28	=28	=28	=28	=28	=28	=28	=28	=28	=28	=28	=28	=28	=28	=28	=28	=28	=28	=28	=28	=28	=28
*	*	*	*	*	*	*	*	*	*	*	*	*	*	*	*	*	*	*^	*	*	*	*	*	*	*	*
2.ryy	4G\	.	2.ryy	8g/	.	.	8r	8r	.	8gg\	.	2.ryy	.	2.ryy	.	4B 4G\	.	4ee/	4cc\	.	8g/L	2.re	.	2.r	.	8gg\L	.
.	.	.	.	8cc\	.	.	8c\L	8eL 8G/	.	8r	.	.	.	.	.	.	.	.	.	.	8cc/	.	.	.	.	8ccc\	.
.	8r	.	.	8ee\	.	.	8c\J	8eJ 8G/	.	8r	.	.	.	.	.	8r	.	8r	8rcyy	.	8ee/J	.	.	.	.	8eee\J	.
.	4GG/	.	.	8dd\	.	.	8r	8r	.	8b\	.	.	.	.	.	4B\	.	4dd 4g/	4ryy	.	8dd/L	.	.	.	.	8ddd\L	.
.	.	.	.	8a\	.	.	8G/L	8dL 8B/	.	8r	.	.	.	.	.	.	.	.	.	.	8a/	.	.	.	.	8aa\	.
.	8r	.	.	8b\	.	.	8G/J	8dJ 8B/	.	8r	.	.	.	.	.	8r	.	8r	8rcyy	.	8b/J	.	.	.	.	8bb\J	.
!!LO:PB:g=original
*	*	*	*	*	*	*	*	*	*	*	*	*	*	*	*	*	*	*v	*v	*	*	*	*	*	*	*	*
=29	=29	=29	=29	=29	=29	=29	=29	=29	=29	=29	=29	=29	=29	=29	=29	=29	=29	=29	=29	=29	=29	=29	=29	=29	=29	=29
8r	4C/	.	2.ryy	[>4.cc\	.	.	8c\	8e 8G/	.	8cc\	.	8r	.	8r	.	8r	.	8r	.	8cc/	8rc	.	8ee\	.	8ccc\	.
*tremolo	*	*	*	*	*	*	*	*	*	*	*	*tremolo	*	*tremolo	*	*tremolo	*	*tremolo	*	*tremolo	*	*	*	*	*	*
!LO:SIC:s=16C/LL	!	!	!	!	!	!	!	!	!	!	!	!	!	!	!	!	!	!	!	!	!	!	!	!	!	!
!	!	!	!	!	!	!	!	!	!	!	!	!	!	!	!	!	!	!	!LO:DY:b:rj	!	!	!	!LO:DY:b:rj	!	!	!
16Re/LL	.	.	.	.	.	.	8r	8r	.	8r	.	16C/LL	.	16e/LL	.	16c\LL	.	16ggLL 16g\	f	16eeLL 16cc\	8ryy	f	8r	.	8r	.
!LO:SIC:s=16C/	!	!	!	!	!	!	!	!	!	!	!	!	!	!	!	!	!	!	!	!	!	!	!	!	!	!
16Re/	.	.	.	.	.	.	.	.	.	.	.	16C/	.	16e/	.	16c\	.	16gg 16g\	.	16ee 16cc\	.	.	.	.	.	.
!LO:SIC:s=16C/	!	!	!	!	!	!	!	!	!	!	!	!	!	!	!	!	!	!	!	!	!	!	!	!	!	!
16Re/	8r	.	.	.	.	.	8r	8r	.	8r	.	16C/	.	16e/	.	16c\	.	16gg 16g\	.	16ee 16cc\	2ryy	.	8r	.	8r	.
!LO:SIC:s=16C/JJ	!	!	!	!	!	!	!	!	!	!	!	!	!	!	!	!	!	!	!	!	!	!	!	!	!	!
16Re/JJ	.	.	.	.	.	.	.	.	.	.	.	16C/JJ	.	16e/JJ	.	16c\JJ	.	16ggJJ 16g\	.	16eeJJ 16cc\	.	.	.	.	.	.
*Xtremolo	*	*	*	*	*	*	*	*	*	*	*	*Xtremolo	*	*Xtremolo	*	*Xtremolo	*	*Xtremolo	*	*Xtremolo	*	*	*	*	*	*
!LO:SIC:s=8C/	!	!	!	!	!	!	!	!	!	!	!	!	!	!	!	!	!	!	!	!	!	!	!	!	!	!
8Re/	4r	.	.	8cc\]	.	.	8r	8r	.	8r	.	8C/	.	8e/	.	8c\	.	8gg 8g\	.	8ee 8cc\	.	.	8r	.	8r	.
8r	.	.	.	8e/	.	.	8e\L	8cc\L	.	8ee\L	.	8r	.	8e/L	.	8c\L	.	8ggL 8g\	.	8eL 8c/	.	.	8cc\L	.	8ee\L	.
8r	8r	.	.	8f/	.	.	8f\J	8dd\J	.	8ff\J	.	8r	.	8f/J	.	8c\J	.	8ggJ 8g\	.	8fJ 8d/	.	.	8dd\J	.	8ff\J	.
*	*	*	*	*	*	*	*	*	*	*	*	*	*	*	*	*	*	*	*	*v	*v	*	*	*	*	*
=30	=30	=30	=30	=30	=30	=30	=30	=30	=30	=30	=30	=30	=30	=30	=30	=30	=30	=30	=30	=30	=30	=30	=30	=30	=30
*	*^	*	*	*	*	*	*	*	*	*	*	*	*	*	*	*	*	*	*	*	*	*	*	*	*
*	*tremolo	*	*	*	*	*	*	*	*	*	*	*	*	*	*	*	*	*	*	*	*	*	*	*	*	*
2.r	16C/LL	4C\	.	2.ryy	8g/	.	.	8g\	8ee\	.	8gg\L	.	4C/	.	8g/L	.	8C\L	.	8r	.	8gL 8e/	.	8ee\L	.	8gg\L	.
.	16C/	.	.	.	.	.	.	.	.	.	.	.	.	.	.	.	.	.	.	.	.	.	.	.	.	.
.	16G/	.	.	.	8ee\	.	.	8c\L	8eL 8G/	.	8eee\	.	.	.	8ee/	.	8G\	.	8eeL 8cc\	.	8ee 8cc/	.	8ccc\	.	8eee\	.
.	16G/	.	.	.	.	.	.	.	.	.	.	.	.	.	.	.	.	.	.	.	.	.	.	.	.	.
.	16c/	8rEE	.	.	8dd\	.	.	8c\J	8eJ 8G/	.	8ddd\J	.	8r	.	8dd/J	.	8c\J	.	8eeJ 8cc\	.	8ddJ 8b/	.	8bb\J	.	8ddd\J	.
.	16c/JJ	.	.	.	.	.	.	.	.	.	.	.	.	.	.	.	.	.	.	.	.	.	.	.	.	.
*	*rep	*	*	*	*	*	*	*	*	*	*	*	*	*	*	*	*rep	*	*rep	*	*	*	*	*	*	*
.	16C/LL	4C\	.	.	8dd\	.	.	8r	8r	.	8ddd\L	.	4C/	.	8dd/L	.	8C\L	.	8r	.	8ddL 8b/	.	8bb\L	.	8ddd\L	.
.	16C/	.	.	.	.	.	.	.	.	.	.	.	.	.	.	.	.	.	.	.	.	.	.	.	.	.
.	16G/	.	.	.	8cc\	.	.	8c\L	8eL 8G/	.	8ccc\	.	.	.	8cc/	.	8G\	.	8eeL 8cc\	.	8cc 8a/	.	8aa\	.	8ccc\	.
.	16G/	.	.	.	.	.	.	.	.	.	.	.	.	.	.	.	.	.	.	.	.	.	.	.	.	.
.	16c/	8rEE	.	.	8b\	.	.	8c\J	8eJ 8G/	.	8bb\J	.	8r	.	8b/J	.	8c\J	.	8eeJ 8cc\	.	8bJ 8g/	.	8gg\J	.	8bb\J	.
.	16c/JJ	.	.	.	.	.	.	.	.	.	.	.	.	.	.	.	.	.	.	.	.	.	.	.	.	.
*	*Xrep	*	*	*	*	*	*	*	*	*	*	*	*	*	*	*	*Xrep	*	*Xrep	*	*	*	*	*	*	*
=31	=31	=31	=31	=31	=31	=31	=31	=31	=31	=31	=31	=31	=31	=31	=31	=31	=31	=31	=31	=31	=31	=31	=31	=31	=31	=31
!	!	!LO:TX:a:t=P:problem=note position	!	!	!	!	!	!	!	!	!	!	!	!	!	!	!	!	!	!	!	!	!	!	!	!
2.r	16FF/LL	4F\	.	2.ryy	4.a/	.	.	8r	8r	.	8aa\	.	4F\	.	8a/	.	8FF/L	.	8r	.	8a 8f/	.	8ff\	.	8aa\	.
.	16FF/	.	.	.	.	.	.	.	.	.	.	.	.	.	.	.	.	.	.	.	.	.	.	.	.	.
.	.	.	.	.	.	.	.	.	.	.	8qbb/	.	.	.	8qb/	.	.	.	.	.	8qb/	.	8qgg/	.	8qbb/	.
.	16AA/	.	.	.	.	.	.	8cL 8C/	8fL 8A/	.	16aa\LL	.	.	.	(<16a/LL	.	8AA/	.	8ccL 8c/	.	16a/LL	.	(>16ff\LL	.	(>16aa\LL	.
.	16AA/	.	.	.	.	.	.	.	.	.	16gg#X\	.	.	.	16g#X/	.	.	.	.	.	16g#X/	.	16ee\	.	16gg#X\	.
.	16C/	8rEE	.	.	.	.	.	8cJ 8C/	8fJ 8A/	.	16aa\	.	8r	.	16a/	.	8C/J	.	8ccJ 8c/	.	16a/	.	16ff\	.	16aa\	.
.	16C/JJ	.	.	.	.	.	.	.	.	.	16bb\JJ	.	.	.	16b/JJ	.	.	.	.	.	16b/JJ	.	16gg\JJ	.	16bb\JJ	.
*	*	*	*	*	*	*	*	*rep	*rep	*	*	*	*	*	*	*	*rep	*	*rep	*	*	*	*	*	*	*
!	!	!LO:TX:a:t=P:problem=note position	!	!	!	!	!	!	!	!	!	!	!	!	!	!	!	!	!	!	!	!	!	!	!	!
.	16FF/LL	4F\	.	.	8a/	.	.	8r	8r	.	8aa\	.	4F\	.	8a/)	.	8FF/L	.	8r	.	8a/	.	8ff\)	.	8aa\)	.
.	16FF/	.	.	.	.	.	.	.	.	.	.	.	.	.	.	.	.	.	.	.	.	.	.	.	.	.
.	16AA/	.	.	.	8a/	.	.	8cL 8C/	8fL 8A/	.	8aa\L	.	.	.	8a/L	.	8AA/	.	8ccL 8c/	.	8a/L	.	8r	.	8aa\L	.
.	16AA/	.	.	.	.	.	.	.	.	.	.	.	.	.	.	.	.	.	.	.	.	.	.	.	.	.
.	16C/	8rEE	.	.	8a/	.	.	8cJ 8C/	8fJ 8A/	.	8aa\J	.	8r	.	8a/J	.	8C/J	.	8ccJ 8c/	.	8a/J	.	8r	.	8aa\J	.
.	16C/JJ	.	.	.	.	.	.	.	.	.	.	.	.	.	.	.	.	.	.	.	.	.	.	.	.	.
*	*	*	*	*	*	*	*	*Xrep	*Xrep	*	*	*	*	*	*	*	*Xrep	*	*Xrep	*	*	*	*	*	*	*
=32	=32	=32	=32	=32	=32	=32	=32	=32	=32	=32	=32	=32	=32	=32	=32	=32	=32	=32	=32	=32	=32	=32	=32	=32	=32	=32
!LO:SIC:s=4GG\	!	!	!	!	!	!	!	!	!	!	!	!	!	!	!	!	!	!	!	!	!	!	!	!	!	!
4Re\	16GG/LL	4G\	.	2.ryy	8a/	.	.	8r	8r	.	8aa'>\L	.	4G\	.	8a/L	.	8GG/L	.	8r	.	8aaL 8ff'>\	.	8ff'>\L	.	8aa'>\L	.
.	16GG/	.	.	.	.	.	.	.	.	.	.	.	.	.	.	.	.	.	.	.	.	.	.	.	.	.
.	16D/	.	.	.	8dd 8d/	.	.	8dL 8B\	8fL 8G/	.	8dd'>\	.	.	.	8d'</	.	8D/	.	8ddL 8g/	.	8dd 8b'>\	.	(>8b'>\	.	(>8dd'>\	.
.	16D/	.	.	.	.	.	.	.	.	.	.	.	.	.	.	.	.	.	.	.	.	.	.	.	.	.
8r	16G/	8rEE	.	.	8ee 8e/	.	.	8dJ 8B\	8fJ 8G/	.	8ee'>\J	.	8r	.	8e'</J	.	8G/J	.	8ddJ 8g/	.	8eeJ 8cc'>\	.	8cc'>\J)	.	8ee'>\J)	.
.	16G/JJ	.	.	.	.	.	.	.	.	.	.	.	.	.	.	.	.	.	.	.	.	.	.	.	.	.
*	*rep	*	*	*	*	*	*	*rep	*rep	*	*	*	*	*	*	*	*rep	*	*rep	*	*	*	*	*	*	*
!LO:SIC:s=4GG\	!	!	!	!	!	!	!	!	!	!	!	!	!	!	!	!	!	!	!	!	!	!	!	!	!	!
4Re\	16GG/LL	4GG/	.	.	8gg 8g\	.	.	8r	8r	.	(>8gg\L	.	4GG/	.	(<8g/L	.	8GG/L	.	8r	.	(>8ggL 8ee\	.	(>8ee\L	.	(>8gg\L	.
.	16GG/	.	.	.	.	.	.	.	.	.	.	.	.	.	.	.	.	.	.	.	.	.	.	.	.	.
.	16D/	.	.	.	8ff 8f\	.	.	8dL 8B\	8fL 8G/	.	8ff\)	.	.	.	8f/)	.	8D/	.	8ddL 8g/	.	8ff 8dd\)	.	8dd\)	.	8ff\)	.
.	16D/	.	.	.	.	.	.	.	.	.	.	.	.	.	.	.	.	.	.	.	.	.	.	.	.	.
!	!	!	!	!	!	!	!	!	!	!	!	!	!	!	!	!	!	!	!	!	!	!	!	!	!LO:TX:a:t=P:problem=w źródle nastepne 2 strony są puste [dotyczy całej partytury]	!
8r	16G/	8rEE	.	.	8dd 8d\	.	.	8dJ 8B\	8fJ 8G/	.	8dd'>\J	.	8r	.	8d'</J	.	8G/J	.	8ddJ 8g/	.	8ddJ 8b'>\	.	8b'>\J	.	8dd'>\J	.
.	16G/JJ	.	.	.	.	.	.	.	.	.	.	.	.	.	.	.	.	.	.	.	.	.	.	.	.	.
*	*Xrep	*	*	*	*	*	*	*Xrep	*Xrep	*	*	*	*	*	*	*	*Xrep	*	*Xrep	*	*	*	*	*	*	*
*	*Xtremolo	*	*	*	*	*	*	*	*	*	*	*	*	*	*	*	*	*	*	*	*	*	*	*	*	*
!!LO:PB:g=original
*	*v	*v	*	*	*	*	*	*	*	*	*	*	*	*	*	*	*	*	*	*	*	*	*	*	*	*
=33	=33	=33	=33	=33	=33	=33	=33	=33	=33	=33	=33	=33	=33	=33	=33	=33	=33	=33	=33	=33	=33	=33	=33	=33	=33
!	!	!	!	!	!	!	!	!	!	!	!	!	!	!	!	!	!	!	!	!	!	!	!	!LO:TX:t=P:problem=w źródle przed tą stroną powinno być coś jeszcze, bo od tego momentu do końca strony instrumenty transponujące nie pasują [dotyczy całej partytury]	!
!	!	!	!	!	!	!	!	!	!	!	!	!	!	!LO:TX:a:Bi:t=Corni	!	!	!	!	!	!	!	!	!	!	!
2.ryy	8C/	.	2.ryy	8cc\	.	.	8c\	8e 8G/	.	8cc\	.	8C/	.	8ee 8cc\	.	8EE/	.	8a/	.	8ee 8cc\	.	8cc\	.	8cc\	.
.	8r	.	.	8r	.	.	8F#X/L	8f#X/L	.	8r	.	8F#X\L	.	8r	.	8r	.	8dd#X\L	.	8r	.	8r	.	8r	.
.	8r	.	.	8r	.	.	8G/J	8g/J	.	8r	.	8G\J	.	8r	.	8r	.	8ee\J	.	8r	.	8r	.	8r	.
.	4r	.	.	4r	.	.	8A-X/L	8a-X/L	.	4r	.	8A-X\L	.	4r	.	4r	.	8ff-X\L	.	4r	.	4r	.	4r	.
.	.	.	.	.	.	.	8F#/	8f#/	.	.	.	8F#\	.	.	.	.	.	8dd#\	.	.	.	.	.	.	.
.	8r	.	.	8r	.	.	8G/J	8g/J	.	8r	.	8G\J	.	8r	.	8r	.	8ee\J	.	8r	.	8r	.	8r	.
=34	=34	=34	=34	=34	=34	=34	=34	=34	=34	=34	=34	=34	=34	=34	=34	=34	=34	=34	=34	=34	=34	=34	=34	=34	=34
2.ryy	8r	.	2.ryy	2.r	.	.	8An/	8an/	.	8r	.	8An\	.	8r	.	8r	.	8ffn\	.	8r	.	8r	.	8r	.
!	!	!	!	!	!	!	!	!	!	!	!	!	!	!	!	!	!	!	!	!	!LO:DY:b:rj	!	!	!	!LO:DY:b:rj
.	8Fn\L	.	.	.	.	.	8cL 8Fn/	8ee-XL 8f/	.	8aaL 8cc\	.	8F\L	.	8ee-XL 8cc\	.	8C/L	.	8ddn\L	.	8ee-XL 8cc\	f	8aa\L	.	8aa\L	f
.	8F\J	.	.	.	.	.	8cJ 8F/	8ee-J 8f/	.	8aaJ 8cc\	.	8F\J	.	8ee-J 8cc\	.	8C/J	.	8dd\J	.	8ee-J 8cc\	.	8aa\J	.	8aa\J	.
*	*tremolo	*	*	*	*	*	*tremolo	*tremolo	*	*tremolo	*	*tremolo	*	*tremolo	*	*tremolo	*	*tremolo	*	*tremolo	*	*tremolo	*	*tremolo	*
.	8F\L	.	.	.	.	.	8cL 8F/	8ee-L 8f/	.	8aaL 8cc\	.	8F\L	.	8ee-L 8cc\	.	8C/L	.	8dd\L	.	8ee-L 8cc\	.	8aa\L	.	8aa\L	.
.	8F\	.	.	.	.	.	8c 8F/	8ee- 8f/	.	8aa 8cc\	.	8F\	.	8ee- 8cc\	.	8C/	.	8dd\	.	8ee- 8cc\	.	8aa\	.	8aa\	.
.	8F\J	.	.	.	.	.	8cJ 8F/	8ee-J 8f/	.	8aaJ 8cc\	.	8F\J	.	8ee-J 8cc\	.	8C/J	.	8dd\J	.	8ee-J 8cc\	.	8aa\J	.	8aa\J	.
*	*Xtremolo	*	*	*	*	*	*Xtremolo	*Xtremolo	*	*Xtremolo	*	*Xtremolo	*	*Xtremolo	*	*Xtremolo	*	*Xtremolo	*	*Xtremolo	*	*Xtremolo	*	*Xtremolo	*
=35	=35	=35	=35	=35	=35	=35	=35	=35	=35	=35	=35	=35	=35	=35	=35	=35	=35	=35	=35	=35	=35	=35	=35	=35	=35
2.ryy	8B-X\	.	2.ryy	2.r	.	.	8B-X/	8dd 8f/	.	8bb-X 8dd\	.	8BB-X/	.	8dd 8b-X\	.	8D-X/	.	8g-X/	.	8dd 8b-X\	.	8bb-X\	.	8bb-X\	.
*	*	*	*	*	*	*	*tremolo	*tremolo	*	*	*	*	*	*	*	*	*	*	*	*	*	*	*	*	*
.	8r	.	.	.	.	.	16F#X/LL	16f#X/LL	.	8r	.	8F#X\L	.	8r	.	8r	.	8dd#X\L	.	8r	.	8r	.	8r	.
.	.	.	.	.	.	.	16F#/	16f#/	.	.	.	.	.	.	.	.	.	.	.	.	.	.	.	.	.
.	8r	.	.	.	.	.	16G/	16g/	.	8r	.	8G\J	.	8r	.	8r	.	8ee\J	.	8r	.	8r	.	8r	.
.	.	.	.	.	.	.	16G/JJ	16g/JJ	.	.	.	.	.	.	.	.	.	.	.	.	.	.	.	.	.
.	4r	.	.	.	.	.	16A-X/LL	16a-X/LL	.	4r	.	8A-X\L	.	4r	.	4r	.	8ff-X\L	.	4r	.	4r	.	4r	.
.	.	.	.	.	.	.	16A-/	16a-/	.	.	.	.	.	.	.	.	.	.	.	.	.	.	.	.	.
.	.	.	.	.	.	.	16F#/	16f#/	.	.	.	8F#\	.	.	.	.	.	8dd#\	.	.	.	.	.	.	.
.	.	.	.	.	.	.	16F#/	16f#/	.	.	.	.	.	.	.	.	.	.	.	.	.	.	.	.	.
.	8r	.	.	.	.	.	16G/	16g/	.	8r	.	8G\J	.	8r	.	8r	.	8ee\J	.	8r	.	8r	.	8r	.
.	.	.	.	.	.	.	16G/JJ	16g/JJ	.	.	.	.	.	.	.	.	.	.	.	.	.	.	.	.	.
*	*	*	*	*	*	*	*Xtremolo	*Xtremolo	*	*	*	*	*	*	*	*	*	*	*	*	*	*	*	*	*
=36	=36	=36	=36	=36	=36	=36	=36	=36	=36	=36	=36	=36	=36	=36	=36	=36	=36	=36	=36	=36	=36	=36	=36	=36	=36
2.ryy	8r	.	2.ryy	2.r	.	.	8An/	8an/	.	8r	.	8An\	.	8r	.	8r	.	8ffnL 8dd#X\	.	8r	.	8r	.	8r	.
.	8F#X\L	.	.	.	.	.	8c#XL 8F#X/	8eenL 8f#X/	.	8aa#XL 8cc#X\	.	8F#X\L	.	8eenL 8cc#X\	.	8C#X/L	.	8dd#\	.	8eenL 8cc#X\	.	8aa#X\L	.	8aa#X\L	.
.	8F#\J	.	.	.	.	.	8c#J 8F#/	8eeJ 8f#/	.	8aa#J 8cc#\	.	8F#\J	.	8eeJ 8cc#\	.	8C#/J	.	8dd#\J	.	8eeJ 8cc#\	.	8aa#\J	.	8aa#\J	.
*	*tremolo	*	*	*	*	*	*tremolo	*tremolo	*	*tremolo	*	*tremolo	*	*tremolo	*	*tremolo	*	*tremolo	*	*tremolo	*	*tremolo	*	*tremolo	*
.	8F#\L	.	.	.	.	.	8c#L 8F#/	8eeL 8f#/	.	8aa#L 8cc#\	.	8F#\L	.	8eeL 8cc#\	.	8C#/L	.	8dd#\L	.	8eeL 8cc#\	.	8aa#\L	.	8aa#\L	.
.	8F#\	.	.	.	.	.	8c# 8F#/	8ee 8f#/	.	8aa# 8cc#\	.	8F#\	.	8ee 8cc#\	.	8C#/	.	8dd#\	.	8ee 8cc#\	.	8aa#\	.	8aa#\	.
.	8F#\J	.	.	.	.	.	8c#J 8F#/	8eeJ 8f#/	.	8aa#J 8cc#\	.	8F#\J	.	8eeJ 8cc#\	.	8C#/J	.	8dd#\J	.	8eeJ 8cc#\	.	8aa#\J	.	8aa#\J	.
*	*Xtremolo	*	*	*	*	*	*Xtremolo	*Xtremolo	*	*Xtremolo	*	*Xtremolo	*	*Xtremolo	*	*Xtremolo	*	*Xtremolo	*	*Xtremolo	*	*Xtremolo	*	*Xtremolo	*
!!LO:PB:g=original
=37||	=37||	=37||	=37||	=37||	=37||	=37||	=37||	=37||	=37||	=37||	=37||	=37||	=37||	=37||	=37||	=37||	=37||	=37||	=37||	=37||	=37||	=37||	=37||	=37||	=37||
!!!OMD: Molto moderato.
*>B	*>B	*	*>B	*>B	*	*	*>B	*>B	*	*>B	*	*>B	*	*>B	*	*>B	*	*>B	*	*>B	*	*>B	*	*>B	*
*k[f#c#]	*k[f#c#]	*	*k[f#c#]	*k[f#c#]	*	*	*k[f#c#]	*k[f#c#]	*	*k[f#c#]	*	*k[f#c#]	*	*k[f#c#]	*	*k[f#c#]	*	*k[f#c#]	*	*k[f#c#]	*	*k[f#c#]	*	*k[f#c#]	*
*M4/4	*M4/4	*	*M4/4	*M4/4	*	*	*M4/4	*M4/4	*	*M4/4	*	*M4/4	*	*M4/4	*	*M4/4	*	*M4/4	*	*M4/4	*	*M4/4	*	*M4/4	*
*met(c)	*met(c)	*	*met(c)	*met(c)	*	*	*met(c)	*met(c)	*	*met(c)	*	*met(c)	*	*met(c)	*	*met(c)	*	*met(c)	*	*met(c)	*	*met(c)	*	*met(c)	*
*	*	*	*	*	*	*	*	*	*	*	*	*	*	*	*	*	*	*^	*	*^	*	*	*	*	*
1ryy	4BB/	.	1ryy	1r	.	.	4B/	4dd 4f#/	.	4bb 4b\	.	4BB/	.	4b\	.	4B\	.	4dd/	4dd\	.	4dd/	4b\	.	4bb\	.	4bb\	.
.	4r	.	.	.	.	.	4r	4r	.	4r	.	4r	.	4r	.	4r	.	4r	4rcyy	.	4r	4rcyy	.	4r	.	4r	.
.	2r	.	.	.	.	.	2r	2r	.	2r	.	2E^<\	.	2g/	.	2E\	.	2ee 2g^<\	2ryy	.	2cc#/	2cc#^<\	.	2r	.	2r	.
=38	=38	=38	=38	=38	=38	=38	=38	=38	=38	=38	=38	=38	=38	=38	=38	=38	=38	=38	=38	=38	=38	=38	=38	=38	=38	=38	=38
1ryy	1r	.	1ryy	1r	.	.	1r	1r	.	1r	.	2F#^<\	.	2f#/	.	2F#\	.	2dd/	2b^<\	.	2b/	2b^<\	.	1r	.	1r	.
.	.	.	.	.	.	.	.	.	.	.	.	2F#^<\	.	2a#X/	.	2F#\	.	2ee/	2cc#X^<\	.	2a#X/	2a#^<\	.	.	.	.	.
*	*	*	*	*	*	*	*	*	*	*	*	*	*	*	*	*	*	*v	*v	*	*	*	*	*	*	*	*
*	*	*	*	*	*	*	*	*	*	*	*	*	*	*	*	*	*	*	*	*v	*v	*	*	*	*	*
=39	=39	=39	=39	=39	=39	=39	=39	=39	=39	=39	=39	=39	=39	=39	=39	=39	=39	=39	=39	=39	=39	=39	=39	=39	=39
!	!	!	!	!	!	!	!	!	!	!	!	!	!LO:DY:b:rj	!	!	!	!LO:DY:b:rj	!	!	!	!	!	!	!	!
1ryy	1r	.	1ryy	1r	.	.	1r	1r	.	1r	.	2B	ff	2b/	.	2B\	ff	1r	.	1r	.	1r	.	1r	.
.	.	.	.	.	.	.	.	.	.	.	.	4F#\	.	4f#/	.	4F#\	.	.	.	.	.	.	.	.	.
.	.	.	.	.	.	.	.	.	.	.	.	4D\	.	4d/	.	4D\	.	.	.	.	.	.	.	.	.
=40	=40	=40	=40	=40	=40	=40	=40	=40	=40	=40	=40	=40	=40	=40	=40	=40	=40	=40	=40	=40	=40	=40	=40	=40	=40
!	!	!	!	!LO:TX:a:Bi:t=Müller:rj	!	!	!	!	!	!	!	!	!	!	!	!	!	!	!	!	!	!	!	!	!
1ryy	1r	.	1ryy	4.b/	Wy	.	1r	1r	.	1r	.	4BB/	.	4B/	.	4BB/	.	1r	.	1r	.	1r	.	1r	.
.	.	.	.	.	.	.	.	.	.	.	.	4r	.	4r	.	4r	.	.	.	.	.	.	.	.	.
.	.	.	.	8b/	co	.	.	.	.	.	.	.	.	.	.	.	.	.	.	.	.	.	.	.	.
.	.	.	.	8.f#/	spo-	.	.	.	.	.	.	2r	.	2r	.	2r	.	.	.	.	.	.	.	.	.
.	.	.	.	16f#/	-czy-	.	.	.	.	.	.	.	.	.	.	.	.	.	.	.	.	.	.	.	.
.	.	.	.	8.d/	-wa-	.	.	.	.	.	.	.	.	.	.	.	.	.	.	.	.	.	.	.	.
.	.	.	.	16d/	-cie	.	.	.	.	.	.	.	.	.	.	.	.	.	.	.	.	.	.	.	.
!!LO:PB:g=original
=41	=41	=41	=41	=41	=41	=41	=41	=41	=41	=41	=41	=41	=41	=41	=41	=41	=41	=41	=41	=41	=41	=41	=41	=41	=41
1ryy	1r	.	1ryy	4B/	tu,	.	1r	1r	.	1r	.	1r	.	1r	.	1r	.	1r	.	1r	.	1r	.	1r	.
.	.	.	.	8r	.	.	.	.	.	.	.	.	.	.	.	.	.	.	.	.	.	.	.	.	.
.	.	.	.	8B/	pod	.	.	.	.	.	.	.	.	.	.	.	.	.	.	.	.	.	.	.	.
.	.	.	.	8d/	zim-	.	.	.	.	.	.	.	.	.	.	.	.	.	.	.	.	.	.	.	.
.	.	.	.	8f#/	-nym	.	.	.	.	.	.	.	.	.	.	.	.	.	.	.	.	.	.	.	.
.	.	.	.	8b\	śmie-	.	.	.	.	.	.	.	.	.	.	.	.	.	.	.	.	.	.	.	.
.	.	.	.	8cc#\	-ci	.	.	.	.	.	.	.	.	.	.	.	.	.	.	.	.	.	.	.	.
=42	=42	=42	=42	=42	=42	=42	=42	=42	=42	=42	=42	=42	=42	=42	=42	=42	=42	=42	=42	=42	=42	=42	=42	=42	=42
*	*	*	*	*	*	*	*	*	*	*	*	*	*	*	*	*	*	*^	*	*	*	*	*	*	*
*	*	*	*	*	*	*	*	*	*	*	*	*	*	*	*	*Xtuplet	*	*Xtuplet	*	*	*	*	*Xtuplet	*	*	*
1ryy	1r	.	1ryy	4dd\	gła-	.	1r	1r	.	1r	.	2r	.	2r	.	2r	.	2r	2rcyy	.	2r	.	2r	.	2r	.
.	.	.	.	4b\	-zem	.	.	.	.	.	.	.	.	.	.	.	.	.	.	.	.	.	.	.	.	.
!	!	!	!	!LO:TX:b:Bi:t=(&colon;Tolombas\nimitując&colon;)	!	!	!	!	!	!	!	!	!	!	!	!	!	!	!	!	!	!	!	!	!	!
!	!	!	!	!	!	!	!	!	!	!	!	!	!LO:DY:b:rj	!	!	!	!LO:DY:b:rj	!	!	!LO:DY:b:rj	!	!	!	!	!	!
.	.	.	.	2r	.	.	.	.	.	.	.	4G#X\	f	4e#X/	.	4G#X\	f	4dd/	4b\	f	4r	.	4r	.	4r	.
!	!	!	!	!	!	!	!	!	!	!	!	!	!	!	!	!	!	!	!	!	!LO:TUP:b:problem=cyfra bez klamry	!	!	!	!LO:TUP:a:problem=cyfra bez klamry	!
.	.	.	.	.	.	.	.	.	.	.	.	4r	.	4r	.	12Gn\L	.	12ddL 12b'>\	4ryy	.	12ee#XL 12b\	.	12dd'>\L	.	12ddd'>\L	.
.	.	.	.	.	.	.	.	.	.	.	.	.	.	.	.	12G\	.	12dd 12b'>\	.	.	12ee# 12b\	.	12cc#'>\	.	12ccc#'>\	.
.	.	.	.	.	.	.	.	.	.	.	.	.	.	.	.	12G\J	.	12ddJ 12b'>\	.	.	12ee#J 12b\	.	12b'>\J	.	12bb'>\J	.
*	*	*	*	*	*	*	*	*	*	*	*	*	*	*	*	*tuplet	*	*tuplet	*	*	*	*	*tuplet	*	*	*
=43	=43	=43	=43	=43	=43	=43	=43	=43	=43	=43	=43	=43	=43	=43	=43	=43	=43	=43	=43	=43	=43	=43	=43	=43	=43	=43
*	*^	*	*	*	*	*	*	*	*	*	*	*	*	*	*	*	*	*	*	*	*	*	*	*	*	*
*	*Xtuplet	*	*	*	*Xtuplet	*	*	*Xtuplet	*Xtuplet	*	*Xtuplet	*	*	*	*	*	*	*	*	*	*	*	*	*	*	*	*
1ryy	2rc	1rGG	.	1ryy	2r	.	.	2r	2r	.	2r	.	1r	.	2r	.	4F#\	.	4cc#X/	4cc#X\	.	4ff# 4a#X\	.	4ff#\	.	4fff#\	.
.	.	.	.	.	.	.	.	.	.	.	.	.	.	.	.	.	4r	.	4r	4rcyy	.	4r	.	4r	.	4r	.
!	!	!	!	!	!	!	!	!	!	!	!	!	!	!	!	!	!	!LO:DY:b:rj	!	!	!LO:DY:b:rj	!	!	!	!	!	!
.	4rc	.	.	.	4r	.	.	4r	4r	.	4r	.	.	.	4e#X/	.	4G#X\	p	4dd/	4b\	p	2r	.	2r	.	2r	.
!	!	!	!	!	!LO:TX:b:Bi:t=pizz:rj	!	!	!LO:TX:b:Bi:t=pizz	!	!	!LO:TX:b:Bi:t=pizz	!	!	!	!	!	!	!	!	!	!	!	!	!	!	!	!
.	12G#X/L	.	.	.	12d/	Słu-	.	12dL 12B\	12e#X/L	.	12dd'>\L	.	.	.	4r	.	4r	.	4r	4rcyy	.	.	.	.	.	.	.
.	12G#/	.	.	.	12c#/	-chaj-	.	12d 12B\	12e#/	.	12cc#'>\	.	.	.	.	.	.	.	.	.	.	.	.	.	.	.	.
.	12G#/J	.	.	.	12B/	-cie	.	12dJ 12B\	12e#/J	.	12b'>\J	.	.	.	.	.	.	.	.	.	.	.	.	.	.	.	.
*	*	*	*	*	*	*	*	*	*	*	*	*	*	*	*	*	*	*	*v	*v	*	*	*	*	*	*	*
=44	=44	=44	=44	=44	=44	=44	=44	=44	=44	=44	=44	=44	=44	=44	=44	=44	=44	=44	=44	=44	=44	=44	=44	=44	=44	=44
1ryy	4F#/	4rEE	.	1ryy	4f#/	mnie	.	4A#X/	4f#/	.	4ff#\	.	1r	.	1r	.	1r	.	1r	.	1r	.	1r	.	1r	.
.	4F#/	4F#\	.	.	4r	.	.	4F#/	4f#/	.	4ff#\	.	.	.	.	.	.	.	.	.	.	.	.	.	.	.
.	2r	2rEEyy	.	.	2r	.	.	2r	2r	.	2r	.	.	.	.	.	.	.	.	.	.	.	.	.	.	.
*	*v	*v	*	*	*	*	*	*	*	*	*	*	*	*	*	*	*	*	*	*	*	*	*	*	*	*
=45	=45	=45	=45	=45	=45	=45	=45	=45	=45	=45	=45	=45	=45	=45	=45	=45	=45	=45	=45	=45	=45	=45	=45	=45	=45
1ryy	1r	.	1ryy	1r	.	.	1r	1r	.	1r	.	2B\	.	2b/	.	2B\	.	1r	.	1r	.	1r	.	1r	.
.	.	.	.	.	.	.	.	.	.	.	.	4F#\	.	4f#/	.	4F#\	.	.	.	.	.	.	.	.	.
.	.	.	.	.	.	.	.	.	.	.	.	4D\	.	4d/	.	4D\	.	.	.	.	.	.	.	.	.
!!LO:PB:g=original
=46	=46	=46	=46	=46	=46	=46	=46	=46	=46	=46	=46	=46	=46	=46	=46	=46	=46	=46	=46	=46	=46	=46	=46	=46	=46
1ryy	1r	.	1ryy	4.b/	Wstan-	.	1r	1r	.	1r	.	4BB/	.	4B/	.	4BB/	.	1ryy	.	1ryy	.	1ryy	.	1ryy	.
.	.	.	.	.	.	.	.	.	.	.	.	4r	.	4r	.	4r	.	.	.	.	.	.	.	.	.
.	.	.	.	8b/	-cie	.	.	.	.	.	.	.	.	.	.	.	.	.	.	.	.	.	.	.	.
.	.	.	.	4f#/	na	.	.	.	.	.	.	2r	.	2r	.	2r	.	.	.	.	.	.	.	.	.
.	.	.	.	8.d/	me	.	.	.	.	.	.	.	.	.	.	.	.	.	.	.	.	.	.	.	.
.	.	.	.	16d/	wez-	.	.	.	.	.	.	.	.	.	.	.	.	.	.	.	.	.	.	.	.
=47	=47	=47	=47	=47	=47	=47	=47	=47	=47	=47	=47	=47	=47	=47	=47	=47	=47	=47	=47	=47	=47	=47	=47	=47	=47
1ryy	1r	.	1ryy	8B/	-wa-	.	1r	1r	.	1r	.	1r	.	1r	.	1r	.	1ryy	.	1ryy	.	1ryy	.	1ryy	.
.	.	.	.	8B/	-nie	.	.	.	.	.	.	.	.	.	.	.	.	.	.	.	.	.	.	.	.
.	.	.	.	8r	.	.	.	.	.	.	.	.	.	.	.	.	.	.	.	.	.	.	.	.	.
.	.	.	.	8B/	Zgro-	.	.	.	.	.	.	.	.	.	.	.	.	.	.	.	.	.	.	.	.
.	.	.	.	8d/	-madź-	.	.	.	.	.	.	.	.	.	.	.	.	.	.	.	.	.	.	.	.
.	.	.	.	8f#/	-cie	.	.	.	.	.	.	.	.	.	.	.	.	.	.	.	.	.	.	.	.
.	.	.	.	8b\	się	.	.	.	.	.	.	.	.	.	.	.	.	.	.	.	.	.	.	.	.
.	.	.	.	8cc#\	tu	.	.	.	.	.	.	.	.	.	.	.	.	.	.	.	.	.	.	.	.
=48	=48	=48	=48	=48	=48	=48	=48	=48	=48	=48	=48	=48	=48	=48	=48	=48	=48	=48	=48	=48	=48	=48	=48	=48	=48
*	*	*	*	*	*	*	*	*	*	*	*	*	*	*	*	*	*	*^	*	*^	*	*	*	*	*
*	*	*	*	*	*	*	*	*	*	*	*	*	*	*Xtuplet	*	*Xtuplet	*	*Xtuplet	*Xtuplet	*	*Xtuplet	*Xtuplet	*	*Xtuplet	*	*Xtuplet	*
1ryy	1r	.	1ryy	4dd\	ra-	.	1r	1r	.	1r	.	2r	.	2r	.	2r	.	2r	2rcyy	.	2r	2rcyy	.	2r	.	2r	.
.	.	.	.	4b\	-zem,	.	.	.	.	.	.	.	.	.	.	.	.	.	.	.	.	.	.	.	.	.	.
!	!	!	!	!	!	!	!	!	!	!	!	!	!	!	!LO:DY:b:rj	!	!LO:DY:b:rj	!	!	!LO:DY:b:rj	!	!	!	!	!	!	!
.	.	.	.	2r	.	.	.	.	.	.	.	4GG#X/	.	4e#X/	f	4G#X\	f	4dd/	4b\	f	4r	4rcyy	.	4r	.	4r	.
*	*	*	*	*	*	*	*	*	*	*	*	*	*	*tremolo	*	*tremolo	*	*tremolo	*tremolo	*	*tremolo	*tremolo	*	*	*	*	*
.	.	.	.	.	.	.	.	.	.	.	.	4r	.	12b/L	.	12G#\L	.	12dd/L	12dd\L	.	12ee#X/L	12dd\L	.	12dd\L	.	12ddd'>\L	.
.	.	.	.	.	.	.	.	.	.	.	.	.	.	12b/	.	12G#\	.	12dd/	12dd\	.	12ee#/	12dd\	.	12cc#\	.	12ccc#'>\	.
.	.	.	.	.	.	.	.	.	.	.	.	.	.	12b/J	.	12G#\J	.	12dd/J	12dd\J	.	12ee#/J	12dd\J	.	12b\J	.	12bb'>\J	.
*	*	*	*	*	*	*	*	*	*	*	*	*	*	*Xtremolo	*	*Xtremolo	*	*Xtremolo	*Xtremolo	*	*Xtremolo	*Xtremolo	*	*	*	*	*
*	*	*	*	*	*	*	*	*	*	*	*	*	*	*tuplet	*	*tuplet	*	*tuplet	*tuplet	*	*tuplet	*tuplet	*	*tuplet	*	*tuplet	*
=49	=49	=49	=49	=49	=49	=49	=49	=49	=49	=49	=49	=49	=49	=49	=49	=49	=49	=49	=49	=49	=49	=49	=49	=49	=49	=49	=49
*	*^	*	*	*	*	*	*	*	*	*	*	*	*	*	*	*	*	*	*	*	*	*	*	*	*	*	*
1ryy	2rc	1rGG	.	1ryy	2r	.	.	2r	2r	.	2r	.	1r	.	4a/	.	4A\	.	4dd/	4dd\	.	4ff#/	4dd\	.	4ff#\	.	4fff#\	.
.	.	.	.	.	.	.	.	.	.	.	.	.	.	.	4r	.	4r	.	4r	4rcyy	.	4r	4rcyy	.	4r	.	4r	.
!	!	!	!	!	!	!	!	!	!	!	!	!	!	!	!	!	!	!	!	!	!LO:DY:b:rj	!	!	!	!	!	!	!
.	4rc	.	.	.	4r	.	.	4r	4r	.	4r	.	.	.	4gn/	.	4A\	.	4ee/	4cc#X\	p	2r	2rcyy	.	2r	.	2r	.
.	12A/L	.	.	.	12gn/	Po-	.	12e\L	12cc#\L	.	12gg\L	.	.	.	4r	.	4r	.	4r	4rcyy	.	.	.	.	.	.	.	.
.	12A/	.	.	.	12f#/	-wstań-	.	12e\	12cc#\	.	12ff#\	.	.	.	.	.	.	.	.	.	.	.	.	.	.	.	.	.
.	12A/J	.	.	.	12e/	-cie	.	12e\J	12cc#\J	.	12ee\J	.	.	.	.	.	.	.	.	.	.	.	.	.	.	.	.	.
!!LO:PB:g=original
*	*	*	*	*	*	*	*	*	*	*	*	*	*	*	*	*	*	*	*v	*v	*	*	*	*	*	*	*	*
*	*	*	*	*	*	*	*	*	*	*	*	*	*	*	*	*	*	*	*	*	*v	*v	*	*	*	*	*
=50	=50	=50	=50	=50	=50	=50	=50	=50	=50	=50	=50	=50	=50	=50	=50	=50	=50	=50	=50	=50	=50	=50	=50	=50	=50	=50
*	*	*	*	*	*	*	*	*	*	*	*tuplet	*	*	*	*	*	*	*	*	*	*	*	*	*	*	*
1ryy	4d/	4rEE	.	1ryy	8e/	więc,	.	4f#\	4dd\	.	4dd\	.	1r	.	1r	.	1r	.	1r	.	1r	.	1r	.	1r	.
.	.	.	.	.	8r	.	.	.	.	.	.	.	.	.	.	.	.	.	.	.	.	.	.	.	.	.
.	4D^>/	4D\	.	.	4r	.	.	4d\	4dd^<\	.	4dd^<\	.	.	.	.	.	.	.	.	.	.	.	.	.	.	.
.	2r	2rEEyy	.	.	2r	.	.	2r	2r	.	2r	.	.	.	.	.	.	.	.	.	.	.	.	.	.	.
=51	=51	=51	=51	=51	=51	=51	=51	=51	=51	=51	=51	=51	=51	=51	=51	=51	=51	=51	=51	=51	=51	=51	=51	=51	=51	=51
*	*	*	*	*	*	*	*	*	*	*	*	*	*	*	*	*	*	*	*^	*	*	*	*	*	*	*
*	*	*	*	*	*	*	*	*	*tremolo	*	*tremolo	*	*	*	*	*	*	*	*	*	*	*	*	*	*	*	*
!	!	!	!	!	!	!	!	!	!	!	!LO:TX:b:Bi:t=arco	!	!	!	!	!	!	!	!	!	!	!	!	!	!	!	!
!	!	!	!	!	!	!	!	!	!	!	!LO:TUP:a:problem=cyfra bez klamry	!	!	!	!	!	!	!	!	!	!	!	!	!	!	!	!
!	!	!	!	!	!	!	!	!	!	!	!	!LO:DY:b:rj	!	!	!	!	!	!	!	!	!	!	!	!	!	!	!
1ryy	2r	1rGG	.	1ryy	2r	.	.	2r	24f#/LL	.	24ff#\LL	p	1r	.	2r	.	2r	.	[>1f#X	1re	.	1r	.	1r	.	1r	.
.	.	.	.	.	.	.	.	.	24f#/	.	24ff#\	.	.	.	.	.	.	.	.	.	.	.	.	.	.	.	.
.	.	.	.	.	.	.	.	.	24f#/	.	24ff#\	.	.	.	.	.	.	.	.	.	.	.	.	.	.	.	.
.	.	.	.	.	.	.	.	.	24f#/	.	24ff#\	.	.	.	.	.	.	.	.	.	.	.	.	.	.	.	.
.	.	.	.	.	.	.	.	.	24f#/	.	24ff#\	.	.	.	.	.	.	.	.	.	.	.	.	.	.	.	.
.	.	.	.	.	.	.	.	.	24f#/	.	24ff#\	.	.	.	.	.	.	.	.	.	.	.	.	.	.	.	.
.	.	.	.	.	.	.	.	.	24f#/	.	24ff#\	.	.	.	.	.	.	.	.	.	.	.	.	.	.	.	.
.	.	.	.	.	.	.	.	.	24f#/	.	24ff#\	.	.	.	.	.	.	.	.	.	.	.	.	.	.	.	.
.	.	.	.	.	.	.	.	.	24f#/	.	24ff#\	.	.	.	.	.	.	.	.	.	.	.	.	.	.	.	.
.	.	.	.	.	.	.	.	.	24f#/	.	24ff#\	.	.	.	.	.	.	.	.	.	.	.	.	.	.	.	.
.	.	.	.	.	.	.	.	.	24f#/	.	24ff#\	.	.	.	.	.	.	.	.	.	.	.	.	.	.	.	.
.	.	.	.	.	.	.	.	.	24f#/JJ	.	24ff#\JJ	.	.	.	.	.	.	.	.	.	.	.	.	.	.	.	.
!	!	!	!	!	!	!	!	!	!	!	!LO:TUP:a:problem=cyfra bez klamry	!	!	!	!	!	!	!	!	!	!	!	!	!	!	!	!
.	4D/	.	.	.	4f#/	Niech	.	4f#\	24f#/LL	.	24ff#\LL	.	.	.	4d/	.	4F#\	.	.	.	.	.	.	.	.	.	.
.	.	.	.	.	.	.	.	.	24f#/	.	24ff#\	.	.	.	.	.	.	.	.	.	.	.	.	.	.	.	.
.	.	.	.	.	.	.	.	.	24f#/	.	24ff#\	.	.	.	.	.	.	.	.	.	.	.	.	.	.	.	.
.	.	.	.	.	.	.	.	.	24f#/	.	24ff#\	.	.	.	.	.	.	.	.	.	.	.	.	.	.	.	.
.	.	.	.	.	.	.	.	.	24f#/	.	24ff#\	.	.	.	.	.	.	.	.	.	.	.	.	.	.	.	.
.	.	.	.	.	.	.	.	.	24f#/	.	24ff#\	.	.	.	.	.	.	.	.	.	.	.	.	.	.	.	.
.	8.C#/L	.	.	.	8.e/	was	.	8.e\L	24f#/	.	24ff#\	.	.	.	8.c#/L	.	8.E\L	.	.	.	.	.	.	.	.	.	.
.	.	.	.	.	.	.	.	.	24f#/	.	24ff#\	.	.	.	.	.	.	.	.	.	.	.	.	.	.	.	.
.	.	.	.	.	.	.	.	.	24f#/	.	24ff#\	.	.	.	.	.	.	.	.	.	.	.	.	.	.	.	.
.	.	.	.	.	.	.	.	.	24f#/	.	24ff#\	.	.	.	.	.	.	.	.	.	.	.	.	.	.	.	.
.	.	.	.	.	.	.	.	.	24f#/	.	24ff#\	.	.	.	.	.	.	.	.	.	.	.	.	.	.	.	.
.	16BB/Jk	.	.	.	16d/	nie	.	16d\Jk	.	.	.	.	.	.	16B/Jk	.	16D\Jk	.	.	.	.	.	.	.	.	.	.
.	.	.	.	.	.	.	.	.	24f#/JJ	.	24ff#\JJ	.	.	.	.	.	.	.	.	.	.	.	.	.	.	.	.
=52	=52	=52	=52	=52	=52	=52	=52	=52	=52	=52	=52	=52	=52	=52	=52	=52	=52	=52	=52	=52	=52	=52	=52	=52	=52	=52	=52
1ryy	4AA#X/	2rGG	.	1ryy	4c#/	trwo-	.	4c# 4A#X/	24f#/LL	.	24ff#\LL	.	1r	.	4A#X/	.	4C#/	.	2f#/]	2re	.	1r	.	1r	.	1r	.
.	.	.	.	.	.	.	.	.	24f#/	.	24ff#\	.	.	.	.	.	.	.	.	.	.	.	.	.	.	.	.
.	.	.	.	.	.	.	.	.	24f#/	.	24ff#\	.	.	.	.	.	.	.	.	.	.	.	.	.	.	.	.
.	.	.	.	.	.	.	.	.	24f#/	.	24ff#\	.	.	.	.	.	.	.	.	.	.	.	.	.	.	.	.
.	.	.	.	.	.	.	.	.	24f#/	.	24ff#\	.	.	.	.	.	.	.	.	.	.	.	.	.	.	.	.
.	.	.	.	.	.	.	.	.	24f#/	.	24ff#\	.	.	.	.	.	.	.	.	.	.	.	.	.	.	.	.
.	4r	.	.	.	8c#/	-ży	.	4r	24f#/	.	24ff#\	.	.	.	4r	.	4r	.	.	.	.	.	.	.	.	.	.
.	.	.	.	.	.	.	.	.	24f#/	.	24ff#\	.	.	.	.	.	.	.	.	.	.	.	.	.	.	.	.
.	.	.	.	.	.	.	.	.	24f#/	.	24ff#\	.	.	.	.	.	.	.	.	.	.	.	.	.	.	.	.
.	.	.	.	.	16r	.	.	.	24f#/	.	24ff#\	.	.	.	.	.	.	.	.	.	.	.	.	.	.	.	.
.	.	.	.	.	.	.	.	.	24f#/	.	24ff#\	.	.	.	.	.	.	.	.	.	.	.	.	.	.	.	.
.	.	.	.	.	16f#/	Cno-	.	.	.	.	.	.	.	.	.	.	.	.	.	.	.	.	.	.	.	.	.
.	.	.	.	.	.	.	.	.	24f#/JJ	.	24ff#\JJ	.	.	.	.	.	.	.	.	.	.	.	.	.	.	.	.
.	2GGn/	(<2GGn\	.	.	4b/	-tli-	.	2d\	24b/LL	.	24ee#X\LL	.	.	.	2e#X/	.	2GGn/	.	2b/	2g\	.	.	.	.	.	.	.
.	.	.	.	.	.	.	.	.	24b/	.	24ee#\	.	.	.	.	.	.	.	.	.	.	.	.	.	.	.	.
.	.	.	.	.	.	.	.	.	24b/	.	24ee#\	.	.	.	.	.	.	.	.	.	.	.	.	.	.	.	.
.	.	.	.	.	.	.	.	.	24b/	.	24ee#\	.	.	.	.	.	.	.	.	.	.	.	.	.	.	.	.
.	.	.	.	.	.	.	.	.	24b/	.	24ee#\	.	.	.	.	.	.	.	.	.	.	.	.	.	.	.	.
.	.	.	.	.	.	.	.	.	24b/	.	24ee#\	.	.	.	.	.	.	.	.	.	.	.	.	.	.	.	.
.	.	.	.	.	8.b/	-wa	.	.	24b/	.	24ee#\	.	.	.	.	.	.	.	.	.	.	.	.	.	.	.	.
.	.	.	.	.	.	.	.	.	24b/	.	24ee#\	.	.	.	.	.	.	.	.	.	.	.	.	.	.	.	.
.	.	.	.	.	.	.	.	.	24b/	.	24ee#\	.	.	.	.	.	.	.	.	.	.	.	.	.	.	.	.
.	.	.	.	.	.	.	.	.	24b/	.	24ee#\	.	.	.	.	.	.	.	.	.	.	.	.	.	.	.	.
.	.	.	.	.	.	.	.	.	24b/	.	24ee#\	.	.	.	.	.	.	.	.	.	.	.	.	.	.	.	.
.	.	.	.	.	16b/	nie-	.	.	.	.	.	.	.	.	.	.	.	.	.	.	.	.	.	.	.	.	.
.	.	.	.	.	.	.	.	.	24b/JJ	.	24ee#\JJ	.	.	.	.	.	.	.	.	.	.	.	.	.	.	.	.
*	*	*	*	*	*	*	*	*	*Xtremolo	*	*	*	*	*	*	*	*	*	*	*	*	*	*	*	*	*	*
=53	=53	=53	=53	=53	=53	=53	=53	=53	=53	=53	=53	=53	=53	=53	=53	=53	=53	=53	=53	=53	=53	=53	=53	=53	=53	=53	=53
1ryy	4FF#/	4FF#\)	.	1ryy	4a#X/	-wia-	.	4f#\	4a#X/	.	24ff#\LL	.	1r	.	4f#/	.	4FF#/	.	4cc#X/	4f#X\	.	1r	.	1r	.	1r	.
.	.	.	.	.	.	.	.	.	.	.	24ff#\	.	.	.	.	.	.	.	.	.	.	.	.	.	.	.	.
.	.	.	.	.	.	.	.	.	.	.	24ff#\	.	.	.	.	.	.	.	.	.	.	.	.	.	.	.	.
.	.	.	.	.	.	.	.	.	.	.	24ff#\	.	.	.	.	.	.	.	.	.	.	.	.	.	.	.	.
.	.	.	.	.	.	.	.	.	.	.	24ff#\	.	.	.	.	.	.	.	.	.	.	.	.	.	.	.	.
.	.	.	.	.	.	.	.	.	.	.	24ff#\	.	.	.	.	.	.	.	.	.	.	.	.	.	.	.	.
*	*	*	*	*	*	*	*	*	*tremolo	*	*	*	*	*	*	*	*	*	*	*	*	*	*	*	*	*	*
.	4r	4ryy	.	.	8f#/	-sta	.	4r	24f#/LL	.	24ff#\	.	.	.	4r	.	4r	.	4rdd	4re	.	.	.	.	.	.	.
.	.	.	.	.	.	.	.	.	24f#/	.	24ff#\	.	.	.	.	.	.	.	.	.	.	.	.	.	.	.	.
.	.	.	.	.	.	.	.	.	24f#/	.	24ff#\	.	.	.	.	.	.	.	.	.	.	.	.	.	.	.	.
.	.	.	.	.	8r	.	.	.	24f#/	.	24ff#\	.	.	.	.	.	.	.	.	.	.	.	.	.	.	.	.
.	.	.	.	.	.	.	.	.	24f#/	.	24ff#\	.	.	.	.	.	.	.	.	.	.	.	.	.	.	.	.
.	.	.	.	.	.	.	.	.	24f#/JJ	.	24ff#\JJ	.	.	.	.	.	.	.	.	.	.	.	.	.	.	.	.
!	!	!	!	!	!	!	!	!	!	!	!	!	!	!	!	!	!	!	!LO:TX:a:t=P:problem=w źródle brak początku ligatury	!	!	!	!	!	!	!	!
.	4D/	2rGG	.	.	8.f#/L	Nie	.	4f#\	24f#/LL	.	24ff#\LL	.	.	.	4d/	.	(>4F#\	.	[>2f#/	2re	.	.	.	.	.	.	.
.	.	.	.	.	.	.	.	.	24f#/	.	24ff#\	.	.	.	.	.	.	.	.	.	.	.	.	.	.	.	.
.	.	.	.	.	.	.	.	.	24f#/	.	24ff#\	.	.	.	.	.	.	.	.	.	.	.	.	.	.	.	.
.	.	.	.	.	.	.	.	.	24f#/	.	24ff#\	.	.	.	.	.	.	.	.	.	.	.	.	.	.	.	.
.	.	.	.	.	.	.	.	.	24f#/	.	24ff#\	.	.	.	.	.	.	.	.	.	.	.	.	.	.	.	.
.	.	.	.	.	16f#/Jk	lę-	.	.	.	.	.	.	.	.	.	.	.	.	.	.	.	.	.	.	.	.	.
.	.	.	.	.	.	.	.	.	24f#/	.	24ff#\	.	.	.	.	.	.	.	.	.	.	.	.	.	.	.	.
.	8.C#/L	.	.	.	8.e/L	-kaj-	.	8.e\L	24f#/	.	24ff#\	.	.	.	8.c#/L	.	8.E\L	.	.	.	.	.	.	.	.	.	.
.	.	.	.	.	.	.	.	.	24f#/	.	24ff#\	.	.	.	.	.	.	.	.	.	.	.	.	.	.	.	.
.	.	.	.	.	.	.	.	.	24f#/	.	24ff#\	.	.	.	.	.	.	.	.	.	.	.	.	.	.	.	.
.	.	.	.	.	.	.	.	.	24f#/	.	24ff#\	.	.	.	.	.	.	.	.	.	.	.	.	.	.	.	.
.	.	.	.	.	.	.	.	.	24f#/	.	24ff#\	.	.	.	.	.	.	.	.	.	.	.	.	.	.	.	.
.	16BB/Jk	.	.	.	16d/Jk	-cie	.	16d\Jk	.	.	.	.	.	.	16B/Jk	.	16D\Jk)	.	.	.	.	.	.	.	.	.	.
.	.	.	.	.	.	.	.	.	24f#/JJ	.	24ff#\JJ	.	.	.	.	.	.	.	.	.	.	.	.	.	.	.	.
!!LO:PB:g=original
=54	=54	=54	=54	=54	=54	=54	=54	=54	=54	=54	=54	=54	=54	=54	=54	=54	=54	=54	=54	=54	=54	=54	=54	=54	=54	=54	=54
1ryy	4AA#X/	2rGG	.	1ryy	4c#/	się	.	4c#\	24f#/LL	.	24ff#\LL	.	1r	.	4A#X/	.	4C#/	.	2f#X/]	2re	.	1r	.	1r	.	1r	.
.	.	.	.	.	.	.	.	.	24f#/	.	24ff#\	.	.	.	.	.	.	.	.	.	.	.	.	.	.	.	.
.	.	.	.	.	.	.	.	.	24f#/	.	24ff#\	.	.	.	.	.	.	.	.	.	.	.	.	.	.	.	.
.	.	.	.	.	.	.	.	.	24f#/	.	24ff#\	.	.	.	.	.	.	.	.	.	.	.	.	.	.	.	.
.	.	.	.	.	.	.	.	.	24f#/	.	24ff#\	.	.	.	.	.	.	.	.	.	.	.	.	.	.	.	.
.	.	.	.	.	.	.	.	.	24f#/	.	24ff#\	.	.	.	.	.	.	.	.	.	.	.	.	.	.	.	.
.	4r	.	.	.	8.r	.	.	4r	24f#/	.	24ff#\	.	.	.	4r	.	4r	.	.	.	.	.	.	.	.	.	.
.	.	.	.	.	.	.	.	.	24f#/	.	24ff#\	.	.	.	.	.	.	.	.	.	.	.	.	.	.	.	.
.	.	.	.	.	.	.	.	.	24f#/	.	24ff#\	.	.	.	.	.	.	.	.	.	.	.	.	.	.	.	.
.	.	.	.	.	.	.	.	.	24f#/	.	24ff#\	.	.	.	.	.	.	.	.	.	.	.	.	.	.	.	.
.	.	.	.	.	.	.	.	.	24f#/	.	24ff#\	.	.	.	.	.	.	.	.	.	.	.	.	.	.	.	.
.	.	.	.	.	16f#/	Niech	.	.	.	.	.	.	.	.	.	.	.	.	.	.	.	.	.	.	.	.	.
.	.	.	.	.	.	.	.	.	24f#/JJ	.	24ff#\JJ	.	.	.	.	.	.	.	.	.	.	.	.	.	.	.	.
.	2GGn/	2GGn\	.	.	8.b/	we	.	2d 2Gn/	24e#X/LL	.	24ee#X\LL	.	.	.	2e#X/	.	(<2GGn/	.	(>2b/	(<2g\	.	.	.	.	.	.	.
.	.	.	.	.	.	.	.	.	24e#/	.	24ee#\	.	.	.	.	.	.	.	.	.	.	.	.	.	.	.	.
.	.	.	.	.	.	.	.	.	24e#/	.	24ee#\	.	.	.	.	.	.	.	.	.	.	.	.	.	.	.	.
.	.	.	.	.	.	.	.	.	24e#/	.	24ee#\	.	.	.	.	.	.	.	.	.	.	.	.	.	.	.	.
.	.	.	.	.	.	.	.	.	24e#/	.	24ee#\	.	.	.	.	.	.	.	.	.	.	.	.	.	.	.	.
.	.	.	.	.	16e#X/	mnie	.	.	.	.	.	.	.	.	.	.	.	.	.	.	.	.	.	.	.	.	.
.	.	.	.	.	.	.	.	.	24e#/	.	24ee#\	.	.	.	.	.	.	.	.	.	.	.	.	.	.	.	.
.	.	.	.	.	8e#/	uf-	.	.	24e#/	.	24ee#\	.	.	.	.	.	.	.	.	.	.	.	.	.	.	.	.
.	.	.	.	.	.	.	.	.	24e#/	.	24ee#\	.	.	.	.	.	.	.	.	.	.	.	.	.	.	.	.
.	.	.	.	.	.	.	.	.	24e#/	.	24ee#\	.	.	.	.	.	.	.	.	.	.	.	.	.	.	.	.
.	.	.	.	.	8e#/	-ność	.	.	24e#/	.	24ee#\	.	.	.	.	.	.	.	.	.	.	.	.	.	.	.	.
.	.	.	.	.	.	.	.	.	24e#/	.	24ee#\	.	.	.	.	.	.	.	.	.	.	.	.	.	.	.	.
.	.	.	.	.	.	.	.	.	24e#/JJ	.	24ee#\JJ	.	.	.	.	.	.	.	.	.	.	.	.	.	.	.	.
*	*	*	*	*	*	*	*	*	*	*	*	*	*	*	*	*	*	*	*v	*v	*	*	*	*	*	*	*
=55	=55	=55	=55	=55	=55	=55	=55	=55	=55	=55	=55	=55	=55	=55	=55	=55	=55	=55	=55	=55	=55	=55	=55	=55	=55	=55
*	*	*	*	*	*	*	*	*	*	*	*	*	*	*	*Xtuplet	*	*Xtuplet	*	*Xtuplet	*	*Xtuplet	*	*	*	*	*
.	.	.	.	.	8qg#X/	.	.	.	.	.	.	.	.	.	.	.	.	.	.	.	.	.	.	.	.	.
1ryy	4FF#/	4FF#\	.	1ryy	4f#/	-sta,	.	4f# 4A#X/	24f#/LL	.	24ff#\LL	.	1r	.	4f#/	.	4FF#/)	.	4cc#X) 4f#X/)	.	2r	.	1r	.	1r	.
.	.	.	.	.	.	.	.	.	24f#/	.	24ff#\	.	.	.	.	.	.	.	.	.	.	.	.	.	.	.
.	.	.	.	.	.	.	.	.	24f#/	.	24ff#\	.	.	.	.	.	.	.	.	.	.	.	.	.	.	.
.	.	.	.	.	.	.	.	.	24f#/	.	24ff#\	.	.	.	.	.	.	.	.	.	.	.	.	.	.	.
.	.	.	.	.	.	.	.	.	24f#/	.	24ff#\	.	.	.	.	.	.	.	.	.	.	.	.	.	.	.
.	.	.	.	.	.	.	.	.	24f#/	.	24ff#\	.	.	.	.	.	.	.	.	.	.	.	.	.	.	.
*	*	*	*	*	*	*	*	*	*	*	*	*	*	*	*	*	*clefC4	*	*	*	*	*	*	*	*	*
.	4r	4ryy	.	.	4r	.	.	4r	24f#/	.	24ff#\	.	.	.	4r	.	4r	.	4r	.	.	.	.	.	.	.
.	.	.	.	.	.	.	.	.	24f#/	.	24ff#\	.	.	.	.	.	.	.	.	.	.	.	.	.	.	.
.	.	.	.	.	.	.	.	.	24f#/	.	24ff#\	.	.	.	.	.	.	.	.	.	.	.	.	.	.	.
.	.	.	.	.	.	.	.	.	24f#/	.	24ff#\	.	.	.	.	.	.	.	.	.	.	.	.	.	.	.
.	.	.	.	.	.	.	.	.	24f#/	.	24ff#\	.	.	.	.	.	.	.	.	.	.	.	.	.	.	.
.	.	.	.	.	.	.	.	.	24f#/JJ	.	24ff#\JJ	.	.	.	.	.	.	.	.	.	.	.	.	.	.	.
.	2r	2ryy	.	.	4r	.	.	2r	24f#/LL	.	24ff#\LL	.	.	.	4r	.	4r	.	2r	.	4r	.	.	.	.	.
.	.	.	.	.	.	.	.	.	24f#/	.	24ff#\	.	.	.	.	.	.	.	.	.	.	.	.	.	.	.
.	.	.	.	.	.	.	.	.	24f#/	.	24ff#\	.	.	.	.	.	.	.	.	.	.	.	.	.	.	.
.	.	.	.	.	.	.	.	.	24f#/	.	24ff#\	.	.	.	.	.	.	.	.	.	.	.	.	.	.	.
.	.	.	.	.	.	.	.	.	24f#/	.	24ff#\	.	.	.	.	.	.	.	.	.	.	.	.	.	.	.
.	.	.	.	.	.	.	.	.	24f#/	.	24ff#\	.	.	.	.	.	.	.	.	.	.	.	.	.	.	.
!	!	!	!	!	!	!	!LO:DY:a:rj	!	!	!	!	!	!	!	!	!	!	!	!	!	!	!	!	!	!	!
.	.	.	.	.	12f#/	W i-	f	.	24f#/	.	24ff#\	.	.	.	12f#/L	.	12d#X\L	.	.	.	12f#L 12d#X/	.	.	.	.	.
.	.	.	.	.	.	.	.	.	24f#/	.	24ff#\	.	.	.	.	.	.	.	.	.	.	.	.	.	.	.
.	.	.	.	.	12d#X/	-mie-	.	.	24f#/	.	24ff#\	.	.	.	12d#X/	.	12B\	.	.	.	12d# 12B/	.	.	.	.	.
.	.	.	.	.	.	.	.	.	24f#/	.	24ff#\	.	.	.	.	.	.	.	.	.	.	.	.	.	.	.
.	.	.	.	.	12f#/	-niu	.	.	24f#/	.	24ff#\	.	.	.	12f#/J	.	12d#\J	.	.	.	12f#J 12d#/	.	.	.	.	.
.	.	.	.	.	.	.	.	.	24f#/JJ	.	24ff#\JJ	.	.	.	.	.	.	.	.	.	.	.	.	.	.	.
*	*v	*v	*	*	*	*	*	*	*	*	*	*	*	*	*	*	*	*	*	*	*	*	*	*	*	*
=56	=56	=56	=56	=56	=56	=56	=56	=56	=56	=56	=56	=56	=56	=56	=56	=56	=56	=56	=56	=56	=56	=56	=56	=56	=56
*	*	*	*	*	*	*	*	*rep	*	*rep	*	*	*	*	*	*	*	*	*	*	*	*	*	*	*
1ryy	4r	.	1ryy	4.b\	pie-	.	4r	24f#/LL	.	24ff#\LL	.	4BB/	.	4b/	.	[>4d#X\	.	4r	.	4b 4d#X/	.	1r	.	1r	.
.	.	.	.	.	.	.	.	24f#/	.	24ff#\	.	.	.	.	.	.	.	.	.	.	.	.	.	.	.
.	.	.	.	.	.	.	.	24f#/	.	24ff#\	.	.	.	.	.	.	.	.	.	.	.	.	.	.	.
.	.	.	.	.	.	.	.	24f#/	.	24ff#\	.	.	.	.	.	.	.	.	.	.	.	.	.	.	.
.	.	.	.	.	.	.	.	24f#/	.	24ff#\	.	.	.	.	.	.	.	.	.	.	.	.	.	.	.
.	.	.	.	.	.	.	.	24f#/	.	24ff#\	.	.	.	.	.	.	.	.	.	.	.	.	.	.	.
!	!LO:TX:b:Bi:t=pizz	!	!	!	!	!	!LO:TX:b:Bi:t=pizz	!	!	!	!	!	!	!	!	!	!	!	!	!	!	!	!	!	!
.	4BB/	.	.	.	.	.	4B/	24f#/	.	24ff#\	.	4r	.	12b/L	.	12d#\L]	.	4dd#X 4f#X/	.	12bL 12d#/	.	.	.	.	.
.	.	.	.	.	.	.	.	24f#/	.	24ff#\	.	.	.	.	.	.	.	.	.	.	.	.	.	.	.
.	.	.	.	.	.	.	.	24f#/	.	24ff#\	.	.	.	12f#/	.	12f#\	.	.	.	12f#/	.	.	.	.	.
.	.	.	.	8b\	-kła	.	.	24f#/	.	24ff#\	.	.	.	.	.	.	.	.	.	.	.	.	.	.	.
.	.	.	.	.	.	.	.	24f#/	.	24ff#\	.	.	.	12b/J	.	12d#\J	.	.	.	12bJ 12d#/	.	.	.	.	.
.	.	.	.	.	.	.	.	24f#/JJ	.	24ff#\JJ	.	.	.	.	.	.	.	.	.	.	.	.	.	.	.
.	4r	.	.	(>4cc#\	ja	.	4r	24f#/LL	.	24ff#\LL	.	4F#\	.	4cc#/	.	4f#\	.	4r	.	4cc# 4f#/	.	.	.	.	.
.	.	.	.	.	.	.	.	24f#/	.	24ff#\	.	.	.	.	.	.	.	.	.	.	.	.	.	.	.
.	.	.	.	.	.	.	.	24f#/	.	24ff#\	.	.	.	.	.	.	.	.	.	.	.	.	.	.	.
.	.	.	.	.	.	.	.	24f#/	.	24ff#\	.	.	.	.	.	.	.	.	.	.	.	.	.	.	.
.	.	.	.	.	.	.	.	24f#/	.	24ff#\	.	.	.	.	.	.	.	.	.	.	.	.	.	.	.
.	.	.	.	.	.	.	.	24f#/	.	24ff#\	.	.	.	.	.	.	.	.	.	.	.	.	.	.	.
.	4F#\	.	.	12cc#\	was	.	4f#\	24f#/	.	24ff#\	.	4r	.	12cc#/L	.	12f#\L	.	4cc#X 4f#/	.	12cc#L 12f#/	.	.	.	.	.
.	.	.	.	.	.	.	.	24f#/	.	24ff#\	.	.	.	.	.	.	.	.	.	.	.	.	.	.	.
.	.	.	.	12b\)	.	.	.	24f#/	.	24ff#\	.	.	.	12b/	.	12d#\	.	.	.	12b 12d#/	.	.	.	.	.
.	.	.	.	.	.	.	.	24f#/	.	24ff#\	.	.	.	.	.	.	.	.	.	.	.	.	.	.	.
.	.	.	.	12cc#\	przy-	.	.	24f#/	.	24ff#\	.	.	.	12cc#/J	.	12f#\J	.	.	.	12cc#J 12f#/	.	.	.	.	.
.	.	.	.	.	.	.	.	24f#/JJ	.	24ff#\JJ	.	.	.	.	.	.	.	.	.	.	.	.	.	.	.
*	*	*	*	*	*	*	*	*Xrep	*	*Xrep	*	*	*	*	*	*	*	*	*	*	*	*	*	*	*
=57	=57	=57	=57	=57	=57	=57	=57	=57	=57	=57	=57	=57	=57	=57	=57	=57	=57	=57	=57	=57	=57	=57	=57	=57	=57
*	*	*	*	*	*	*	*	*rep	*	*rep	*	*	*	*	*	*	*	*	*	*	*	*	*	*	*
1ryy	4r	.	1ryy	4dd#X\	-zy-	.	4r	24f#/LL	.	24ff#\LL	.	4r	.	12dd#X/L	.	4r	.	4r	.	12dd#XL 12b/	.	1r	.	1r	.
.	.	.	.	.	.	.	.	24f#/	.	24ff#\	.	.	.	.	.	.	.	.	.	.	.	.	.	.	.
.	.	.	.	.	.	.	.	24f#/	.	24ff#\	.	.	.	12b/	.	.	.	.	.	12b/	.	.	.	.	.
.	.	.	.	.	.	.	.	24f#/	.	24ff#\	.	.	.	.	.	.	.	.	.	.	.	.	.	.	.
.	.	.	.	.	.	.	.	24f#/	.	24ff#\	.	.	.	12f#/J	.	.	.	.	.	12f#/J	.	.	.	.	.
.	.	.	.	.	.	.	.	24f#/	.	24ff#\	.	.	.	.	.	.	.	.	.	.	.	.	.	.	.
*	*	*	*	*	*	*	*	*	*	*	*	*	*	*	*	*clefF4	*	*	*	*	*	*	*	*	*
.	4BB/	.	.	4b\	-wam	.	4B/	24f#/	.	24ff#\	.	4BB/	.	12b/L	.	12B\L	.	12dd#XL 12b\	.	12b/L	.	.	.	.	.
.	.	.	.	.	.	.	.	24f#/	.	24ff#\	.	.	.	.	.	.	.	.	.	.	.	.	.	.	.
.	.	.	.	.	.	.	.	24f#/	.	24ff#\	.	.	.	12f#/	.	12F#\	.	12dd# 12b\	.	12f#/	.	.	.	.	.
.	.	.	.	.	.	.	.	24f#/	.	24ff#\	.	.	.	.	.	.	.	.	.	.	.	.	.	.	.
.	.	.	.	.	.	.	.	24f#/	.	24ff#\	.	.	.	12d#X/J	.	12D\J	.	12dd#J 12b\	.	12d/J	.	.	.	.	.
.	.	.	.	.	.	.	.	24f#/JJ	.	24ff#\JJ	.	.	.	.	.	.	.	.	.	.	.	.	.	.	.
.	4BB/	.	.	4r	.	.	4B/	24f#/LL	.	24ff#\LL	.	4BB/	.	4B/	.	4BB/	.	4dd# 4b\	.	4B/	.	.	.	.	.
.	.	.	.	.	.	.	.	24f#/	.	24ff#\	.	.	.	.	.	.	.	.	.	.	.	.	.	.	.
.	.	.	.	.	.	.	.	24f#/	.	24ff#\	.	.	.	.	.	.	.	.	.	.	.	.	.	.	.
.	.	.	.	.	.	.	.	24f#/	.	24ff#\	.	.	.	.	.	.	.	.	.	.	.	.	.	.	.
.	.	.	.	.	.	.	.	24f#/	.	24ff#\	.	.	.	.	.	.	.	.	.	.	.	.	.	.	.
.	.	.	.	.	.	.	.	24f#/	.	24ff#\	.	.	.	.	.	.	.	.	.	.	.	.	.	.	.
*	*	*	*	*	*	*	*	*	*	*	*	*	*	*	*	*clefC4	*	*	*	*	*	*	*	*	*
.	4r	.	.	12f#/	w I-	.	4r	24f#/	.	24ff#\	.	4r	.	12f#/L	.	12d#X\L	.	4r	.	12f#L 12d#X/	.	.	.	.	.
.	.	.	.	.	.	.	.	24f#/	.	24ff#\	.	.	.	.	.	.	.	.	.	.	.	.	.	.	.
.	.	.	.	12d#X/	-mie-	.	.	24f#/	.	24ff#\	.	.	.	12d#X/	.	12B\	.	.	.	12d# 12B/	.	.	.	.	.
.	.	.	.	.	.	.	.	24f#/	.	24ff#\	.	.	.	.	.	.	.	.	.	.	.	.	.	.	.
.	.	.	.	12f#/	-niu	.	.	24f#/	.	24ff#\	.	.	.	12f#/J	.	12d#\J	.	.	.	12f#J 12d#/	.	.	.	.	.
.	.	.	.	.	.	.	.	24f#/JJ	.	24ff#\JJ	.	.	.	.	.	.	.	.	.	.	.	.	.	.	.
*	*	*	*	*	*	*	*	*Xrep	*	*Xrep	*	*	*	*	*	*	*	*	*	*	*	*	*	*	*
!!LO:PB:g=original
=58	=58	=58	=58	=58	=58	=58	=58	=58	=58	=58	=58	=58	=58	=58	=58	=58	=58	=58	=58	=58	=58	=58	=58	=58	=58
1ryy	4r	.	1ryy	4.b\	pie-	.	4r	24f#/LL	.	24ff#\LL	.	4BB/	.	4b/	.	4d#X\	.	4r	.	4b 4d#X/	.	1ryy	.	1ryy	.
.	.	.	.	.	.	.	.	24f#/	.	24ff#\	.	.	.	.	.	.	.	.	.	.	.	.	.	.	.
.	.	.	.	.	.	.	.	24f#/	.	24ff#\	.	.	.	.	.	.	.	.	.	.	.	.	.	.	.
.	.	.	.	.	.	.	.	24f#/	.	24ff#\	.	.	.	.	.	.	.	.	.	.	.	.	.	.	.
.	.	.	.	.	.	.	.	24f#/	.	24ff#\	.	.	.	.	.	.	.	.	.	.	.	.	.	.	.
.	.	.	.	.	.	.	.	24f#/	.	24ff#\	.	.	.	.	.	.	.	.	.	.	.	.	.	.	.
.	4BB/	.	.	.	.	.	4B/	24f#/	.	24ff#\	.	4r	.	12b/L	.	12d#\L	.	4dd#X 4f#X/	.	12bL 12d#/	.	.	.	.	.
.	.	.	.	.	.	.	.	24f#/	.	24ff#\	.	.	.	.	.	.	.	.	.	.	.	.	.	.	.
.	.	.	.	.	.	.	.	24f#/	.	24ff#\	.	.	.	12f#/	.	12B\	.	.	.	12f#/	.	.	.	.	.
.	.	.	.	8b\	-kła	.	.	24f#/	.	24ff#\	.	.	.	.	.	.	.	.	.	.	.	.	.	.	.
.	.	.	.	.	.	.	.	24f#/	.	24ff#\	.	.	.	12b/J	.	12d#\J	.	.	.	12bJ 12d#/	.	.	.	.	.
.	.	.	.	.	.	.	.	24f#/JJ	.	24ff#\JJ	.	.	.	.	.	.	.	.	.	.	.	.	.	.	.
.	4r	.	.	(>4cc#\	ja	.	4r	24f#/LL	.	24ff#\LL	.	4F#\	.	4cc#/	.	4f#\	.	4r	.	4cc# 4f#/	.	.	.	.	.
.	.	.	.	.	.	.	.	24f#/	.	24ff#\	.	.	.	.	.	.	.	.	.	.	.	.	.	.	.
.	.	.	.	.	.	.	.	24f#/	.	24ff#\	.	.	.	.	.	.	.	.	.	.	.	.	.	.	.
.	.	.	.	.	.	.	.	24f#/	.	24ff#\	.	.	.	.	.	.	.	.	.	.	.	.	.	.	.
.	.	.	.	.	.	.	.	24f#/	.	24ff#\	.	.	.	.	.	.	.	.	.	.	.	.	.	.	.
.	.	.	.	.	.	.	.	24f#/	.	24ff#\	.	.	.	.	.	.	.	.	.	.	.	.	.	.	.
.	4F#\	.	.	12cc#\)	was	.	4f#\	24f#/	.	24ff#\	.	4r	.	12cc#\L	.	12f#\L	.	4cc#X 4f#/	.	12cc#L 12f#/	.	.	.	.	.
.	.	.	.	.	.	.	.	24f#/	.	24ff#\	.	.	.	.	.	.	.	.	.	.	.	.	.	.	.
.	.	.	.	12b\	.	.	.	24f#/	.	24ff#\	.	.	.	12b\	.	12d#\	.	.	.	12b 12d#X/	.	.	.	.	.
.	.	.	.	.	.	.	.	24f#/	.	24ff#\	.	.	.	.	.	.	.	.	.	.	.	.	.	.	.
.	.	.	.	12cc#\	przy-	.	.	24f#/	.	24ff#\	.	.	.	12cc#\J	.	12f#\J	.	.	.	12cc#J 12f#/	.	.	.	.	.
.	.	.	.	.	.	.	.	24f#/JJ	.	24ff#\JJ	.	.	.	.	.	.	.	.	.	.	.	.	.	.	.
*	*	*	*	*	*	*	*	*	*	*	*	*	*	*	*	*	*	*tuplet	*	*	*	*	*	*	*
=59	=59	=59	=59	=59	=59	=59	=59	=59	=59	=59	=59	=59	=59	=59	=59	=59	=59	=59	=59	=59	=59	=59	=59	=59	=59
*	*	*	*	*	*	*	*	*rep	*	*rep	*	*	*	*	*	*	*	*	*	*	*	*	*	*	*
1ryy	4r	.	1ryy	4dd#X\	-zy-	.	4r	24f#/LL	.	24ff#\LL	.	4r	.	12dd#X/L	.	4r	.	4r	.	12dd#XL 12b/	.	1ryy	.	1ryy	.
.	.	.	.	.	.	.	.	24f#/	.	24ff#\	.	.	.	.	.	.	.	.	.	.	.	.	.	.	.
.	.	.	.	.	.	.	.	24f#/	.	24ff#\	.	.	.	12b/	.	.	.	.	.	12b/	.	.	.	.	.
.	.	.	.	.	.	.	.	24f#/	.	24ff#\	.	.	.	.	.	.	.	.	.	.	.	.	.	.	.
.	.	.	.	.	.	.	.	24f#/	.	24ff#\	.	.	.	12f#/J	.	.	.	.	.	12f#/J	.	.	.	.	.
.	.	.	.	.	.	.	.	24f#/	.	24ff#\	.	.	.	.	.	.	.	.	.	.	.	.	.	.	.
*	*	*	*	*	*	*	*	*	*	*	*	*	*	*	*	*clefF4	*	*	*	*	*	*	*	*	*
*	*	*	*	*	*	*	*	*	*	*	*	*	*	*	*	*	*	*tremolo	*	*	*	*	*	*	*
!	!	!	!	!	!	!	!	!	!	!	!	!	!	!	!	!	!	!LO:TUP:a	!	!	!	!	!	!	!
.	4BB/	.	.	4b\	-wam!	.	4B/	24f#/	.	24ff#\	.	4BB/	.	12b/L	.	12B\L	.	12dd#XL 12b'>\	.	12b/L	.	.	.	.	.
.	.	.	.	.	.	.	.	24f#/	.	24ff#\	.	.	.	.	.	.	.	.	.	.	.	.	.	.	.
.	.	.	.	.	.	.	.	24f#/	.	24ff#\	.	.	.	12f#/	.	12F#\	.	12dd# 12b'>\	.	12f#/	.	.	.	.	.
.	.	.	.	.	.	.	.	24f#/	.	24ff#\	.	.	.	.	.	.	.	.	.	.	.	.	.	.	.
.	.	.	.	.	.	.	.	24f#/	.	24ff#\	.	.	.	12d#X/J	.	12D#X\J	.	12dd#J 12b'>\	.	12d#X/J	.	.	.	.	.
.	.	.	.	.	.	.	.	24f#/JJ	.	24ff#\JJ	.	.	.	.	.	.	.	.	.	.	.	.	.	.	.
*	*	*	*	*	*	*	*	*	*	*	*	*	*	*	*	*	*	*Xtremolo	*	*	*	*	*	*	*
.	4BB/	.	.	4r	.	.	4B/	24f#/LL	.	24ff#\LL	.	4BB/	.	4B/	.	4BB/	.	4dd# 4b\	.	4B/	.	.	.	.	.
.	.	.	.	.	.	.	.	24f#/	.	24ff#\	.	.	.	.	.	.	.	.	.	.	.	.	.	.	.
.	.	.	.	.	.	.	.	24f#/	.	24ff#\	.	.	.	.	.	.	.	.	.	.	.	.	.	.	.
.	.	.	.	.	.	.	.	24f#/	.	24ff#\	.	.	.	.	.	.	.	.	.	.	.	.	.	.	.
.	.	.	.	.	.	.	.	24f#/	.	24ff#\	.	.	.	.	.	.	.	.	.	.	.	.	.	.	.
.	.	.	.	.	.	.	.	24f#/	.	24ff#\	.	.	.	.	.	.	.	.	.	.	.	.	.	.	.
.	4r	.	.	8r	.	.	4r	24f#/	.	24ff#\	.	4r	.	12dd#\L	.	12B\L	.	4r	.	12dd#L 12b/	.	.	.	.	.
.	.	.	.	.	.	.	.	24f#/	.	24ff#\	.	.	.	.	.	.	.	.	.	.	.	.	.	.	.
.	.	.	.	.	.	.	.	24f#/	.	24ff#\	.	.	.	12cc#\	.	12F#\	.	.	.	12cc# 12f#/	.	.	.	.	.
.	.	.	.	16b\	te-	.	.	24f#/	.	24ff#\	.	.	.	.	.	.	.	.	.	.	.	.	.	.	.
.	.	.	.	.	.	.	.	24f#/	.	24ff#\	.	.	.	12b\J	.	12D#\J	.	.	.	12bJ 12d#/	.	.	.	.	.
.	.	.	.	16b\	-raz	.	.	.	.	.	.	.	.	.	.	.	.	.	.	.	.	.	.	.	.
.	.	.	.	.	.	.	.	24f#/JJ	.	24ff#\JJ	.	.	.	.	.	.	.	.	.	.	.	.	.	.	.
*	*	*	*	*	*	*	*	*Xrep	*	*Xrep	*	*	*	*	*	*	*	*	*	*	*	*	*	*	*
*	*	*	*	*	*	*	*	*	*	*	*	*	*	*	*	*	*	*Xtuplet	*	*	*	*	*	*	*
=60	=60	=60	=60	=60	=60	=60	=60	=60	=60	=60	=60	=60	=60	=60	=60	=60	=60	=60	=60	=60	=60	=60	=60	=60	=60
*	*	*	*	*	*	*	*	*rep	*	*rep	*	*	*	*	*	*	*	*	*	*	*	*	*	*	*
1ryy	1r	.	1ryy	4cc#\	czas,	.	1r	24f#/LL	.	24ff#\LL	.	4F#\	.	4cc#\	.	4F#\	.	4cc#X 4f#X/	.	4cc# 4f#/	.	1ryy	.	1ryy	.
.	.	.	.	.	.	.	.	24f#/	.	24ff#\	.	.	.	.	.	.	.	.	.	.	.	.	.	.	.
.	.	.	.	.	.	.	.	24f#/	.	24ff#\	.	.	.	.	.	.	.	.	.	.	.	.	.	.	.
.	.	.	.	.	.	.	.	24f#/	.	24ff#\	.	.	.	.	.	.	.	.	.	.	.	.	.	.	.
.	.	.	.	.	.	.	.	24f#/	.	24ff#\	.	.	.	.	.	.	.	.	.	.	.	.	.	.	.
.	.	.	.	.	.	.	.	24f#/	.	24ff#\	.	.	.	.	.	.	.	.	.	.	.	.	.	.	.
.	.	.	.	8r	.	.	.	24f#/	.	24ff#\	.	4r	.	12dd#X\L	.	12B\L	.	4r	.	12dd#XL 12b/	.	.	.	.	.
.	.	.	.	.	.	.	.	24f#/	.	24ff#\	.	.	.	.	.	.	.	.	.	.	.	.	.	.	.
.	.	.	.	.	.	.	.	24f#/	.	24ff#\	.	.	.	12cc#\	.	12F#\	.	.	.	12cc# 12f#/	.	.	.	.	.
.	.	.	.	16b\	te-	.	.	24f#/	.	24ff#\	.	.	.	.	.	.	.	.	.	.	.	.	.	.	.
.	.	.	.	.	.	.	.	24f#/	.	24ff#\	.	.	.	12b\J	.	12D#X\J	.	.	.	12bJ 12d#X/	.	.	.	.	.
.	.	.	.	16b\	-raz	.	.	.	.	.	.	.	.	.	.	.	.	.	.	.	.	.	.	.	.
.	.	.	.	.	.	.	.	24f#/JJ	.	24ff#\JJ	.	.	.	.	.	.	.	.	.	.	.	.	.	.	.
.	.	.	.	4cc#\	czas,	.	.	24f#/LL	.	24ff#\LL	.	4F#\	.	4cc#\	.	4F#\	.	4cc# 4f#/	.	4cc# 4f#/	.	.	.	.	.
.	.	.	.	.	.	.	.	24f#/	.	24ff#\	.	.	.	.	.	.	.	.	.	.	.	.	.	.	.
.	.	.	.	.	.	.	.	24f#/	.	24ff#\	.	.	.	.	.	.	.	.	.	.	.	.	.	.	.
.	.	.	.	.	.	.	.	24f#/	.	24ff#\	.	.	.	.	.	.	.	.	.	.	.	.	.	.	.
.	.	.	.	.	.	.	.	24f#/	.	24ff#\	.	.	.	.	.	.	.	.	.	.	.	.	.	.	.
.	.	.	.	.	.	.	.	24f#/	.	24ff#\	.	.	.	.	.	.	.	.	.	.	.	.	.	.	.
.	.	.	.	8r	.	.	.	24f#/	.	24ff#\	.	4r	.	12dd#\L	.	12B\L	.	4r	.	12dd#L 12b/	.	.	.	.	.
.	.	.	.	.	.	.	.	24f#/	.	24ff#\	.	.	.	.	.	.	.	.	.	.	.	.	.	.	.
.	.	.	.	.	.	.	.	24f#/	.	24ff#\	.	.	.	12cc#\	.	12F#\	.	.	.	12cc# 12f#/	.	.	.	.	.
.	.	.	.	16b\	te-	.	.	24f#/	.	24ff#\	.	.	.	.	.	.	.	.	.	.	.	.	.	.	.
.	.	.	.	.	.	.	.	24f#/	.	24ff#\	.	.	.	12b\J	.	12D#\J	.	.	.	12bJ 12d#/	.	.	.	.	.
.	.	.	.	16b\	-raz	.	.	.	.	.	.	.	.	.	.	.	.	.	.	.	.	.	.	.	.
.	.	.	.	.	.	.	.	24f#/JJ	.	24ff#\JJ	.	.	.	.	.	.	.	.	.	.	.	.	.	.	.
*	*	*	*	*	*	*	*	*Xtremolo	*	*Xtremolo	*	*	*	*	*	*	*	*	*	*	*	*	*	*	*
*	*	*	*	*	*	*	*	*Xrep	*	*Xrep	*	*	*	*	*	*	*	*	*	*	*	*	*	*	*
*	*tuplet	*	*	*tuplet	*	*	*tuplet	*tuplet	*	*tuplet	*	*	*	*tuplet	*	*tuplet	*	*tuplet	*	*tuplet	*	*	*	*	*
!!LO:PB:g=original
=61	=61	=61	=61	=61	=61	=61	=61	=61	=61	=61	=61	=61	=61	=61	=61	=61	=61	=61	=61	=61	=61	=61	=61	=61	=61
!	!LO:TX:b:Bi:t=arco	!	!	!	!	!	!LO:TX:b:Bi:t=arco	!	!	!	!	!	!	!	!	!	!	!	!	!	!	!	!	!	!
!	!	!	!	!	!	!LO:HP:a	!	!	!	!	!	!	!	!	!	!	!	!	!	!	!	!	!	!	!
1ryy	2r	.	1ryy	2cc#\	czas	>	2r	4f#/	.	4ff#\	.	4F#\	.	4cc#\	.	4F#\	.	4cc#X 4f#X/	.	4cc# 4f#/	.	1r	.	1r	.
.	.	.	.	.	.	.	.	4r	.	4r	.	4r	.	4r	.	4r	.	4r	.	4r	.	.	.	.	.
!	!	!	!	!	!	!LO:DY:b	!	!	!LO:DY:b:rj	!	!LO:DY:b:rj	!	!	!	!	!	!LO:DY:b:rj	!	!	!	!	!	!	!	!
.	2Gn\	.	.	4.dd\	po-	] pp	2B/	2b\	p	2dd\	p	2r	.	2r	.	2Gn\	p	2r	.	2r	.	.	.	.	.
.	.	.	.	8dd\	-tę-	.	.	.	.	.	.	.	.	.	.	.	.	.	.	.	.	.	.	.	.
=62	=62	=62	=62	=62	=62	=62	=62	=62	=62	=62	=62	=62	=62	=62	=62	=62	=62	=62	=62	=62	=62	=62	=62	=62	=62
1ryy	2E\	.	1ryy	2ccn\	-pion	.	2e\	2gn/	.	2ccn\	.	1r	.	1r	.	2E\	.	1r	.	1r	.	1r	.	1r	.
.	2F#\	.	.	4.a#X/	tak	.	2c#\	2e/	.	2a#X/	.	.	.	.	.	2F#\	.	.	.	.	.	.	.	.	.
.	.	.	.	8a#/	jak	.	.	.	.	.	.	.	.	.	.	.	.	.	.	.	.	.	.	.	.
=63	=63	=63	=63	=63	=63	=63	=63	=63	=63	=63	=63	=63	=63	=63	=63	=63	=63	=63	=63	=63	=63	=63	=63	=63	=63
*	*	*	*	*	*	*	*	*	*	*	*	*	*	*	*	*	*	*	*	*^	*	*	*	*	*
1ryy	2Gn\	.	1ryy	2b/	wy	.	2B/	2dn/	.	2b/	.	1r	.	1r	.	2Gn\	.	[>1b	.	2r	2rcyy	.	2r	.	1r	.
!	!	!	!	!	!	!	!	!	!	!	!	!	!	!	!	!	!	!	!	!	!	!	!	!LO:DY:b:rj	!	!
.	2D\	.	.	4.d/	po-	.	2B/	[<2B/	.	2f#/	.	.	.	.	.	2D\	.	.	.	2dd/	(<2dd\	.	(>2ff#\	p	.	.
.	.	.	.	8d/	-tę-	.	.	.	.	.	.	.	.	.	.	.	.	.	.	.	.	.	.	.	.	.
=64	=64	=64	=64	=64	=64	=64	=64	=64	=64	=64	=64	=64	=64	=64	=64	=64	=64	=64	=64	=64	=64	=64	=64	=64	=64	=64
1ryy	2E\	.	1ryy	2g/	-pion	.	1c#X	2B/]	.	2g/	.	1r	.	1r	.	2E\	.	2b\]	.	1ee	2dd\	.	2gg\)	.	1r	.
.	2F#\	.	.	4.f#/	tak	.	.	2A#X/	.	2f#/	.	.	.	.	.	2F#\	.	2ff#X\	.	.	2cc#X\)	.	2ff#\	.	.	.
.	.	.	.	8f#/	jak	.	.	.	.	.	.	.	.	.	.	.	.	.	.	.	.	.	.	.	.	.
=65	=65	=65	=65	=65	=65	=65	=65	=65	=65	=65	=65	=65	=65	=65	=65	=65	=65	=65	=65	=65	=65	=65	=65	=65	=65	=65
1ryy	4BB/	.	1ryy	4B/	wy,	.	4B/	4B/	.	4B/	.	1r	.	1r	.	4BB/	.	4b\	.	4dd/	4dd\	.	4b\	.	1r	.
!	!	!	!	!LO:TX:b:Bi:t=/&colon;proza&colon;/	!	!	!	!	!	!	!	!	!	!	!	!	!	!	!	!	!	!	!	!	!	!
.	4r	.	.	4r	.	.	4r	4r	.	4r	.	.	.	.	.	4r	.	4r	.	4r	4rcyy	.	4r	.	.	.
.	2r	.	.	2r	.	.	2r	2r	.	2r	.	.	.	.	.	2r	.	2r	.	2r	2rcyy	.	2r	.	.	.
*	*	*	*	*	*	*	*	*	*	*	*	*	*	*	*	*	*	*	*	*v	*v	*	*	*	*	*
==	==	==	==	==	==	==	==	==	==	==	==	==	==	==	==	==	==	==	==	==	==	==	==	==	==
*-	*-	*-	*-	*-	*-	*-	*-	*-	*-	*-	*-	*-	*-	*-	*-	*-	*-	*-	*-	*-	*-	*-	*-	*-	*-
!!!system-decoration: {(s1,s2)}[(s3,s4,s5)][(s6,s7)]{(s8,s9)}[(s10)][(s11)][(s12,s13)][(s14)]
!!!RDF**kern: > = above
!!!RDF**kern: < = below
!!!RDF**kern: | = vertical stroke
!!!RDF**kern: N = linked
!!!RDF**kern: i = editorial accidental
!!!EED: Wojciech Jakubiak-Danek
!!!EEV: 2021-05-10
!!!ENC: Mateusz Solarz
!!!END: 2021-04-28
!!!YEC: Copyright 2022 Narodowy Instytut Fryderyka Chopina (https://polishscores.org)
!!!YEM: License CC-BY-4.0 (https://creativecommons.org/licenses/by/4.0)
